(.../_Drive/eagle/ULP/pcb-gcode.ulp)
(Copyright 2005 - 2012 by John Johnson)
(See readme.txt for licensing terms.)
(This file generated from the board:)
(.../_Drive/eagle/LED/FlashLight.brd)
(Current profile is .../eagle/ULP/profiles/generic.pp  )
(This file generated 12.07.2016 22:36)
(Settings from pcb-machine.h)
(spindle on time = 3.0000)
(spindle speed = 20000.0000)
(tool change at 0.0000 0.0000 25.4000 )
(feed rate xy = F0.00  )
(feed rate z  = F200.00 )
(Z Axis Settings)
(  High     Up        Down     Drill)
(12.7000 	2.5400 	-0.3500 	-0.2000 )
(Settings from pcb-defaults.h)
(isolate min = 0.0254)
(isolate max = 0.5080)
(isolate step = 0.1270)
(Generated top outlines, top drill, bottom outlines, bottom drill, )
(Unit of measure: mm)
( Tool|       Size       |  Min Sub |  Max Sub |   Count )
( T01  0.500mm 0.0197in 0.0000in 0.0000in )
(Metric Mode)
G21
(Absolute Coordinates)
G90
S20000
G00 Z12.7000 
G00 X0.0000 Y0.0000 
M03
G04 P3.000000
M05
G00 Z25.4000 
M06 T01  ; 0.5000 
G01 Z0.0000 F200.00 
M06 
G00 Z2.5400 
M03
G04 P3.000000
G00 Z2.540000
G00 X-0.8980 Y-0.8980 
G01 Z-0.2000 F200.00 
G01 Z2.540000
(R2.5400  P1.000000)
G00 X0.8980 Y0.8980 
G01 Z-0.200000
G01 Z2.540000
G00 X4.4901 Y4.4901 
G01 Z-0.200000
G01 Z2.540000
G00 X6.2862 Y6.2862 
G01 Z-0.200000
G01 Z2.540000
G00 X0.0000 Y6.3500 
G01 Z-0.200000
G01 Z2.540000
G00 X0.0000 Y8.8900 
G01 Z-0.200000
G01 Z2.540000
G00 X-4.4901 Y4.4901 
G01 Z-0.200000
G01 Z2.540000
G00 X-6.2862 Y6.2862 
G01 Z-0.200000
G01 Z2.540000
G00 X-6.3500 Y0.0000 
G01 Z-0.200000
G01 Z2.540000
G00 X-8.8900 Y0.0000 
G01 Z-0.200000
G01 Z2.540000
G00 X-4.4901 Y-4.4901 
G01 Z-0.200000
G01 Z2.540000
G00 X-6.2862 Y-6.2862 
G01 Z-0.200000
G01 Z2.540000
G00 X0.0000 Y-6.3500 
G01 Z-0.200000
G01 Z2.540000
G00 X0.0000 Y-8.8900 
G01 Z-0.200000
G01 Z2.540000
G00 X4.4901 Y-4.4901 
G01 Z-0.200000
G01 Z2.540000
G00 X6.2862 Y-6.2862 
G01 Z-0.200000
G01 Z2.540000
G00 X6.3500 Y0.0000 
G01 Z-0.200000
G01 Z2.540000
G00 X8.8900 Y0.0000 
G01 Z-0.200000
G01 Z2.540000
T01 
G00 Z12.7000 
M05
M02
