(.../_Drive/eagle/ULP/pcb-gcode.ulp)
(Copyright 2005 - 2012 by John Johnson)
(See readme.txt for licensing terms.)
(This file generated from the board:)
(.../_Drive/eagle/LED/FlashLight.brd)
(Current profile is .../eagle/ULP/profiles/generic.pp  )
(This file generated 12.07.2016 22:36)
(Settings from pcb-machine.h)
(spindle on time = 3.0000)
(  Tool Size)
(0.1200 )
(spindle speed = 30000.0000)
(tool change at 0.0000 0.0000 25.4000 )
(feed rate xy = F100.00 )
(feed rate z  = F100.00 )
(Z Axis Settings)
(  High     Up        Down     Drill)
(12.7000 	2.5400 	-0.3500 	-0.2000 )
(Settings from pcb-defaults.h)
(isolate min = 0.0254)
(isolate max = 0.5080)
(isolate step = 0.1270)
(Generated top outlines, top drill, bottom outlines, bottom drill, )
(Unit of measure: mm)
(Metric Mode)
G21
(Absolute Coordinates)
G90
S30000
G00 Z12.7000 
G00 X0.0000 Y0.0000 
M03
G04 P3.000000
G00 Z2.5400 
G00 X0.0764 Y-0.4944 
G01 Z-0.3500 F100.00 
G01 X0.0764 Y-1.3016 F100.00 
G01 X-0.4944 Y-1.8724 
G01 X-1.3016 Y-1.8724 
G01 X-1.8724 Y-1.3016 
G01 X-1.8724 Y-0.4944 
G01 X-1.3016 Y0.0764 
G01 X-0.4944 Y0.0764 
G01 X0.0764 Y-0.4944 
G00 Z2.5400 
G00 X0.8496 Y-0.4316 
G01 Z-0.3500 F100.00 
G01 X-0.4316 Y0.8496 F100.00 
G01 X-0.4446 Y0.8810 
G01 X-0.4446 Y0.9150 
G01 X-0.4316 Y0.9464 
G01 X0.8496 Y2.2277 
G01 X0.8810 Y2.2407 
G01 X0.9150 Y2.2407 
G01 X0.9464 Y2.2277 
G01 X2.2277 Y0.9464 
G01 X2.2407 Y0.9150 
G01 X2.2407 Y0.8810 
G01 X2.2277 Y0.8496 
G01 X0.9464 Y-0.4316 
G01 X0.9150 Y-0.4446 
G01 X0.8810 Y-0.4446 
G01 X0.8496 Y-0.4316 
G00 Z2.5400 
G00 X5.3756 Y-0.4036 
G01 Z-0.3500 F100.00 
G01 X5.3756 Y0.4036 F100.00 
G01 X5.9464 Y0.9744 
G01 X6.7536 Y0.9744 
G01 X7.3244 Y0.4036 
G01 X7.3244 Y-0.4036 
G01 X6.7536 Y-0.9744 
G01 X5.9464 Y-0.9744 
G01 X5.3756 Y-0.4036 
G00 Z2.5400 
G00 X7.9156 Y-0.9060 
G01 Z-0.3500 F100.00 
G01 X7.9156 Y0.9060 F100.00 
G01 X7.9286 Y0.9374 
G01 X7.9526 Y0.9614 
G01 X7.9840 Y0.9744 
G01 X9.7960 Y0.9744 
G01 X9.8274 Y0.9614 
G01 X9.8514 Y0.9374 
G01 X9.8644 Y0.9060 
G01 X9.8644 Y-0.9060 
G01 X9.8514 Y-0.9374 
G01 X9.8274 Y-0.9614 
G01 X9.7960 Y-0.9744 
G01 X7.9840 Y-0.9744 
G01 X7.9526 Y-0.9614 
G01 X7.9286 Y-0.9374 
G01 X7.9156 Y-0.9060 
G00 Z2.5400 
G00 X7.6158 Y-6.2378 
G01 Z-0.3500 F100.00 
G01 X7.6288 Y-6.2692 F100.00 
G01 X7.6288 Y-6.3032 
G01 X7.6158 Y-6.3346 
G01 X6.3346 Y-7.6158 
G01 X6.3032 Y-7.6288 
G01 X6.2692 Y-7.6288 
G01 X6.2378 Y-7.6158 
G01 X4.9565 Y-6.3346 
G01 X4.9435 Y-6.3032 
G01 X4.9435 Y-6.2692 
G01 X4.9565 Y-6.2378 
G01 X6.2378 Y-4.9565 
G01 X6.2692 Y-4.9435 
G01 X6.3032 Y-4.9435 
G01 X6.3346 Y-4.9565 
G01 X7.6158 Y-6.2378 
G00 Z2.5400 
G00 X4.8937 Y-5.4645 
G01 Z-0.3500 F100.00 
G01 X4.0865 Y-5.4645 F100.00 
G01 X3.5157 Y-4.8937 
G01 X3.5157 Y-4.0865 
G01 X4.0865 Y-3.5157 
G01 X4.8937 Y-3.5157 
G01 X5.4645 Y-4.0865 
G01 X5.4645 Y-4.8937 
G01 X4.8937 Y-5.4645 
G00 Z2.5400 
G00 X0.9744 Y-5.9464 
G01 Z-0.3500 F100.00 
G01 X0.9744 Y-6.7536 F100.00 
G01 X0.4036 Y-7.3244 
G01 X-0.4036 Y-7.3244 
G01 X-0.9744 Y-6.7536 
G01 X-0.9744 Y-5.9464 
G01 X-0.4036 Y-5.3756 
G01 X0.4036 Y-5.3756 
G01 X0.9744 Y-5.9464 
G00 Z2.5400 
G00 X0.9614 Y-7.9526 
G01 Z-0.3500 F100.00 
G01 X0.9744 Y-7.9840 F100.00 
G01 X0.9744 Y-9.7960 
G01 X0.9614 Y-9.8274 
G01 X0.9374 Y-9.8514 
G01 X0.9060 Y-9.8644 
G01 X-0.9060 Y-9.8644 
G01 X-0.9374 Y-9.8514 
G01 X-0.9614 Y-9.8274 
G01 X-0.9744 Y-9.7960 
G01 X-0.9744 Y-7.9840 
G01 X-0.9614 Y-7.9526 
G01 X-0.9374 Y-7.9286 
G01 X-0.9060 Y-7.9156 
G01 X0.9060 Y-7.9156 
G01 X0.9374 Y-7.9286 
G01 X0.9614 Y-7.9526 
G00 Z2.5400 
G00 X-6.2378 Y-7.6158 
G01 Z-0.3500 F100.00 
G01 X-6.2692 Y-7.6288 F100.00 
G01 X-6.3032 Y-7.6288 
G01 X-6.3346 Y-7.6158 
G01 X-7.6158 Y-6.3346 
G01 X-7.6288 Y-6.3032 
G01 X-7.6288 Y-6.2692 
G01 X-7.6158 Y-6.2378 
G01 X-6.3346 Y-4.9565 
G01 X-6.3032 Y-4.9435 
G01 X-6.2692 Y-4.9435 
G01 X-6.2378 Y-4.9565 
G01 X-4.9565 Y-6.2378 
G01 X-4.9435 Y-6.2692 
G01 X-4.9435 Y-6.3032 
G01 X-4.9565 Y-6.3346 
G01 X-6.2378 Y-7.6158 
G00 Z2.5400 
G00 X-5.4645 Y-4.8937 
G01 Z-0.3500 F100.00 
G01 X-5.4645 Y-4.0865 F100.00 
G01 X-4.8937 Y-3.5157 
G01 X-4.0865 Y-3.5157 
G01 X-3.5157 Y-4.0865 
G01 X-3.5157 Y-4.8937 
G01 X-4.0865 Y-5.4645 
G01 X-4.8937 Y-5.4645 
G01 X-5.4645 Y-4.8937 
G00 Z2.5400 
G00 X-5.9464 Y-0.9744 
G01 Z-0.3500 F100.00 
G01 X-6.7536 Y-0.9744 F100.00 
G01 X-7.3244 Y-0.4036 
G01 X-7.3244 Y0.4036 
G01 X-6.7536 Y0.9744 
G01 X-5.9464 Y0.9744 
G01 X-5.3756 Y0.4036 
G01 X-5.3756 Y-0.4036 
G01 X-5.9464 Y-0.9744 
G00 Z2.5400 
G00 X-7.9526 Y-0.9614 
G01 Z-0.3500 F100.00 
G01 X-7.9840 Y-0.9744 F100.00 
G01 X-9.7960 Y-0.9744 
G01 X-9.8274 Y-0.9614 
G01 X-9.8514 Y-0.9374 
G01 X-9.8644 Y-0.9060 
G01 X-9.8644 Y0.9060 
G01 X-9.8514 Y0.9374 
G01 X-9.8274 Y0.9614 
G01 X-9.7960 Y0.9744 
G01 X-7.9840 Y0.9744 
G01 X-7.9526 Y0.9614 
G01 X-7.9286 Y0.9374 
G01 X-7.9156 Y0.9060 
G01 X-7.9156 Y-0.9060 
G01 X-7.9286 Y-0.9374 
G01 X-7.9526 Y-0.9614 
G00 Z2.5400 
G00 X-7.6158 Y6.2378 
G01 Z-0.3500 F100.00 
G01 X-7.6288 Y6.2692 F100.00 
G01 X-7.6288 Y6.3032 
G01 X-7.6158 Y6.3346 
G01 X-6.3346 Y7.6158 
G01 X-6.3032 Y7.6288 
G01 X-6.2692 Y7.6288 
G01 X-6.2378 Y7.6158 
G01 X-4.9565 Y6.3346 
G01 X-4.9435 Y6.3032 
G01 X-4.9435 Y6.2692 
G01 X-4.9565 Y6.2378 
G01 X-6.2378 Y4.9565 
G01 X-6.2692 Y4.9435 
G01 X-6.3032 Y4.9435 
G01 X-6.3346 Y4.9565 
G01 X-7.6158 Y6.2378 
G00 Z2.5400 
G00 X-4.8937 Y5.4645 
G01 Z-0.3500 F100.00 
G01 X-4.0865 Y5.4645 F100.00 
G01 X-3.5157 Y4.8937 
G01 X-3.5157 Y4.0865 
G01 X-4.0865 Y3.5157 
G01 X-4.8937 Y3.5157 
G01 X-5.4645 Y4.0865 
G01 X-5.4645 Y4.8937 
G01 X-4.8937 Y5.4645 
G00 Z2.5400 
G00 X-0.9744 Y5.9464 
G01 Z-0.3500 F100.00 
G01 X-0.9744 Y6.7536 F100.00 
G01 X-0.4036 Y7.3244 
G01 X0.4036 Y7.3244 
G01 X0.9744 Y6.7536 
G01 X0.9744 Y5.9464 
G01 X0.4036 Y5.3756 
G01 X-0.4036 Y5.3756 
G01 X-0.9744 Y5.9464 
G00 Z2.5400 
G00 X-0.9614 Y7.9526 
G01 Z-0.3500 F100.00 
G01 X-0.9744 Y7.9840 F100.00 
G01 X-0.9744 Y9.7960 
G01 X-0.9614 Y9.8274 
G01 X-0.9374 Y9.8514 
G01 X-0.9060 Y9.8644 
G01 X0.9060 Y9.8644 
G01 X0.9374 Y9.8514 
G01 X0.9614 Y9.8274 
G01 X0.9744 Y9.7960 
G01 X0.9744 Y7.9840 
G01 X0.9614 Y7.9526 
G01 X0.9374 Y7.9286 
G01 X0.9060 Y7.9156 
G01 X-0.9060 Y7.9156 
G01 X-0.9374 Y7.9286 
G01 X-0.9614 Y7.9526 
G00 Z2.5400 
G00 X6.2378 Y7.6158 
G01 Z-0.3500 F100.00 
G01 X6.2692 Y7.6288 F100.00 
G01 X6.3032 Y7.6288 
G01 X6.3346 Y7.6158 
G01 X7.6158 Y6.3346 
G01 X7.6288 Y6.3032 
G01 X7.6288 Y6.2692 
G01 X7.6158 Y6.2378 
G01 X6.3346 Y4.9565 
G01 X6.3032 Y4.9435 
G01 X6.2692 Y4.9435 
G01 X6.2378 Y4.9565 
G01 X4.9565 Y6.2378 
G01 X4.9435 Y6.2692 
G01 X4.9435 Y6.3032 
G01 X4.9565 Y6.3346 
G01 X6.2378 Y7.6158 
G00 Z2.5400 
G00 X5.4645 Y4.8937 
G01 Z-0.3500 F100.00 
G01 X5.4645 Y4.0865 F100.00 
G01 X4.8937 Y3.5157 
G01 X4.0865 Y3.5157 
G01 X3.5157 Y4.0865 
G01 X3.5157 Y4.8937 
G01 X4.0865 Y5.4645 
G01 X4.8937 Y5.4645 
G01 X5.4645 Y4.8937 
G00 Z2.5400 
G00 X0.2034 Y-0.4418 
G01 Z-0.3500 F100.00 
G01 X0.2034 Y-1.3542 F100.00 
G01 X-0.4418 Y-1.9994 
G01 X-1.3542 Y-1.9994 
G01 X-1.9994 Y-1.3542 
G01 X-1.9994 Y-0.4418 
G01 X-1.3542 Y0.2034 
G01 X-0.4418 Y0.2034 
G01 X0.2034 Y-0.4418 
G00 Z2.5400 
G00 X0.7777 Y-0.5393 
G01 Z-0.3500 F100.00 
G01 X-0.5393 Y0.7777 F100.00 
G01 X-0.5716 Y0.8558 
G01 X-0.5716 Y0.9403 
G01 X-0.5393 Y1.0183 
G01 X0.7777 Y2.3353 
G01 X0.8558 Y2.3677 
G01 X0.9403 Y2.3677 
G01 X1.0183 Y2.3353 
G01 X2.3353 Y1.0183 
G01 X2.3677 Y0.9403 
G01 X2.3677 Y0.8558 
G01 X2.3353 Y0.7777 
G01 X1.0183 Y-0.5393 
G01 X0.9403 Y-0.5716 
G01 X0.8558 Y-0.5716 
G01 X0.7777 Y-0.5393 
G00 Z2.5400 
G00 X5.2486 Y-0.4562 
G01 Z-0.3500 F100.00 
G01 X5.2486 Y0.4562 F100.00 
G01 X5.8938 Y1.1014 
G01 X6.8062 Y1.1014 
G01 X7.4514 Y0.4562 
G01 X7.4514 Y-0.4562 
G01 X6.8062 Y-1.1014 
G01 X5.8938 Y-1.1014 
G01 X5.2486 Y-0.4562 
G00 Z2.5400 
G00 X7.7886 Y-0.9312 
G01 Z-0.3500 F100.00 
G01 X7.7886 Y0.9312 F100.00 
G01 X7.8209 Y1.0093 
G01 X7.8807 Y1.0691 
G01 X7.9588 Y1.1014 
G01 X9.8212 Y1.1014 
G01 X9.8993 Y1.0691 
G01 X9.9591 Y1.0093 
G01 X9.9914 Y0.9312 
G01 X9.9914 Y-0.9312 
G01 X9.9591 Y-1.0093 
G01 X9.8993 Y-1.0691 
G01 X9.8212 Y-1.1014 
G01 X7.9588 Y-1.1014 
G01 X7.8807 Y-1.0691 
G01 X7.8209 Y-1.0093 
G01 X7.7886 Y-0.9312 
G00 Z2.5400 
G00 X7.7235 Y-6.1659 
G01 Z-0.3500 F100.00 
G01 X7.7558 Y-6.2439 F100.00 
G01 X7.7558 Y-6.3284 
G01 X7.7235 Y-6.4065 
G01 X6.4065 Y-7.7235 
G01 X6.3284 Y-7.7558 
G01 X6.2439 Y-7.7558 
G01 X6.1659 Y-7.7235 
G01 X4.8489 Y-6.4065 
G01 X4.8165 Y-6.3284 
G01 X4.8165 Y-6.2439 
G01 X4.8489 Y-6.1659 
G01 X6.1659 Y-4.8489 
G01 X6.2439 Y-4.8165 
G01 X6.3284 Y-4.8165 
G01 X6.4065 Y-4.8489 
G01 X7.7235 Y-6.1659 
G00 Z2.5400 
G00 X4.9463 Y-5.5915 
G01 Z-0.3500 F100.00 
G01 X4.0339 Y-5.5915 F100.00 
G01 X3.3887 Y-4.9463 
G01 X3.3887 Y-4.0339 
G01 X4.0339 Y-3.3887 
G01 X4.9463 Y-3.3887 
G01 X5.5915 Y-4.0339 
G01 X5.5915 Y-4.9463 
G01 X4.9463 Y-5.5915 
G00 Z2.5400 
G00 X1.1014 Y-5.8938 
G01 Z-0.3500 F100.00 
G01 X1.1014 Y-6.8062 F100.00 
G01 X0.4562 Y-7.4514 
G01 X-0.4562 Y-7.4514 
G01 X-1.1014 Y-6.8062 
G01 X-1.1014 Y-5.8938 
G01 X-0.4562 Y-5.2486 
G01 X0.4562 Y-5.2486 
G01 X1.1014 Y-5.8938 
G00 Z2.5400 
G00 X1.0691 Y-7.8807 
G01 Z-0.3500 F100.00 
G01 X1.1014 Y-7.9588 F100.00 
G01 X1.1014 Y-9.8212 
G01 X1.0691 Y-9.8993 
G01 X1.0093 Y-9.9591 
G01 X0.9312 Y-9.9914 
G01 X-0.9312 Y-9.9914 
G01 X-1.0093 Y-9.9591 
G01 X-1.0691 Y-9.8993 
G01 X-1.1014 Y-9.8212 
G01 X-1.1014 Y-7.9588 
G01 X-1.0691 Y-7.8807 
G01 X-1.0093 Y-7.8209 
G01 X-0.9312 Y-7.7886 
G01 X0.9312 Y-7.7886 
G01 X1.0093 Y-7.8209 
G01 X1.0691 Y-7.8807 
G00 Z2.5400 
G00 X-6.1659 Y-7.7235 
G01 Z-0.3500 F100.00 
G01 X-6.2439 Y-7.7558 F100.00 
G01 X-6.3284 Y-7.7558 
G01 X-6.4065 Y-7.7235 
G01 X-7.7235 Y-6.4065 
G01 X-7.7558 Y-6.3284 
G01 X-7.7558 Y-6.2439 
G01 X-7.7235 Y-6.1659 
G01 X-6.4065 Y-4.8489 
G01 X-6.3284 Y-4.8165 
G01 X-6.2439 Y-4.8165 
G01 X-6.1659 Y-4.8489 
G01 X-4.8489 Y-6.1659 
G01 X-4.8165 Y-6.2439 
G01 X-4.8165 Y-6.3284 
G01 X-4.8489 Y-6.4065 
G01 X-6.1659 Y-7.7235 
G00 Z2.5400 
G00 X-5.5915 Y-4.9463 
G01 Z-0.3500 F100.00 
G01 X-5.5915 Y-4.0339 F100.00 
G01 X-4.9463 Y-3.3887 
G01 X-4.0339 Y-3.3887 
G01 X-3.3887 Y-4.0339 
G01 X-3.3887 Y-4.9463 
G01 X-4.0339 Y-5.5915 
G01 X-4.9463 Y-5.5915 
G01 X-5.5915 Y-4.9463 
G00 Z2.5400 
G00 X-5.8938 Y-1.1014 
G01 Z-0.3500 F100.00 
G01 X-6.8062 Y-1.1014 F100.00 
G01 X-7.4514 Y-0.4562 
G01 X-7.4514 Y0.4562 
G01 X-6.8062 Y1.1014 
G01 X-5.8938 Y1.1014 
G01 X-5.2486 Y0.4562 
G01 X-5.2486 Y-0.4562 
G01 X-5.8938 Y-1.1014 
G00 Z2.5400 
G00 X-7.8807 Y-1.0691 
G01 Z-0.3500 F100.00 
G01 X-7.9588 Y-1.1014 F100.00 
G01 X-9.8212 Y-1.1014 
G01 X-9.8993 Y-1.0691 
G01 X-9.9591 Y-1.0093 
G01 X-9.9914 Y-0.9312 
G01 X-9.9914 Y0.9312 
G01 X-9.9591 Y1.0093 
G01 X-9.8993 Y1.0691 
G01 X-9.8212 Y1.1014 
G01 X-7.9588 Y1.1014 
G01 X-7.8807 Y1.0691 
G01 X-7.8209 Y1.0093 
G01 X-7.7886 Y0.9312 
G01 X-7.7886 Y-0.9312 
G01 X-7.8209 Y-1.0093 
G01 X-7.8807 Y-1.0691 
G00 Z2.5400 
G00 X-7.7235 Y6.1659 
G01 Z-0.3500 F100.00 
G01 X-7.7558 Y6.2439 F100.00 
G01 X-7.7558 Y6.3284 
G01 X-7.7235 Y6.4065 
G01 X-6.4065 Y7.7235 
G01 X-6.3284 Y7.7558 
G01 X-6.2439 Y7.7558 
G01 X-6.1659 Y7.7235 
G01 X-4.8489 Y6.4065 
G01 X-4.8165 Y6.3284 
G01 X-4.8165 Y6.2439 
G01 X-4.8489 Y6.1659 
G01 X-6.1659 Y4.8489 
G01 X-6.2439 Y4.8165 
G01 X-6.3284 Y4.8165 
G01 X-6.4065 Y4.8489 
G01 X-7.7235 Y6.1659 
G00 Z2.5400 
G00 X-4.9463 Y5.5915 
G01 Z-0.3500 F100.00 
G01 X-4.0339 Y5.5915 F100.00 
G01 X-3.3887 Y4.9463 
G01 X-3.3887 Y4.0339 
G01 X-4.0339 Y3.3887 
G01 X-4.9463 Y3.3887 
G01 X-5.5915 Y4.0339 
G01 X-5.5915 Y4.9463 
G01 X-4.9463 Y5.5915 
G00 Z2.5400 
G00 X-1.1014 Y5.8938 
G01 Z-0.3500 F100.00 
G01 X-1.1014 Y6.8062 F100.00 
G01 X-0.4562 Y7.4514 
G01 X0.4562 Y7.4514 
G01 X1.1014 Y6.8062 
G01 X1.1014 Y5.8938 
G01 X0.4562 Y5.2486 
G01 X-0.4562 Y5.2486 
G01 X-1.1014 Y5.8938 
G00 Z2.5400 
G00 X-1.0691 Y7.8807 
G01 Z-0.3500 F100.00 
G01 X-1.1014 Y7.9588 F100.00 
G01 X-1.1014 Y9.8212 
G01 X-1.0691 Y9.8993 
G01 X-1.0093 Y9.9591 
G01 X-0.9312 Y9.9914 
G01 X0.9312 Y9.9914 
G01 X1.0093 Y9.9591 
G01 X1.0691 Y9.8993 
G01 X1.1014 Y9.8212 
G01 X1.1014 Y7.9588 
G01 X1.0691 Y7.8807 
G01 X1.0093 Y7.8209 
G01 X0.9312 Y7.7886 
G01 X-0.9312 Y7.7886 
G01 X-1.0093 Y7.8209 
G01 X-1.0691 Y7.8807 
G00 Z2.5400 
G00 X6.1659 Y7.7235 
G01 Z-0.3500 F100.00 
G01 X6.2439 Y7.7558 F100.00 
G01 X6.3284 Y7.7558 
G01 X6.4065 Y7.7235 
G01 X7.7235 Y6.4065 
G01 X7.7558 Y6.3284 
G01 X7.7558 Y6.2439 
G01 X7.7235 Y6.1659 
G01 X6.4065 Y4.8489 
G01 X6.3284 Y4.8165 
G01 X6.2439 Y4.8165 
G01 X6.1659 Y4.8489 
G01 X4.8489 Y6.1659 
G01 X4.8165 Y6.2439 
G01 X4.8165 Y6.3284 
G01 X4.8489 Y6.4065 
G01 X6.1659 Y7.7235 
G00 Z2.5400 
G00 X5.5915 Y4.9463 
G01 Z-0.3500 F100.00 
G01 X5.5915 Y4.0339 F100.00 
G01 X4.9463 Y3.3887 
G01 X4.0339 Y3.3887 
G01 X3.3887 Y4.0339 
G01 X3.3887 Y4.9463 
G01 X4.0339 Y5.5915 
G01 X4.9463 Y5.5915 
G01 X5.5915 Y4.9463 
G00 Z2.5400 
G00 X0.3304 Y-0.3892 
G01 Z-0.3500 F100.00 
G01 X0.3304 Y-1.4068 F100.00 
G01 X-0.3892 Y-2.1264 
G01 X-1.4068 Y-2.1264 
G01 X-2.1264 Y-1.4068 
G01 X-2.1264 Y-0.3892 
G01 X-1.4068 Y0.3304 
G01 X-0.3892 Y0.3304 
G01 X0.3304 Y-0.3892 
G00 Z2.5400 
G00 X0.6896 Y-0.6308 
G01 Z-0.3500 F100.00 
G01 X-0.6308 Y0.6896 F100.00 
G01 X-0.6755 Y0.7670 
G01 X-0.6986 Y0.8533 
G01 X-0.6986 Y0.9427 
G01 X-0.6755 Y1.0290 
G01 X-0.6308 Y1.1064 
G01 X0.6896 Y2.4268 
G01 X0.7670 Y2.4715 
G01 X0.8533 Y2.4947 
G01 X0.9427 Y2.4947 
G01 X1.0290 Y2.4715 
G01 X1.1064 Y2.4268 
G01 X2.4268 Y1.1064 
G01 X2.4715 Y1.0290 
G01 X2.4947 Y0.9427 
G01 X2.4947 Y0.8533 
G01 X2.4715 Y0.7670 
G01 X2.4268 Y0.6896 
G01 X1.1064 Y-0.6308 
G01 X1.0290 Y-0.6755 
G01 X0.9427 Y-0.6986 
G01 X0.8533 Y-0.6986 
G01 X0.7670 Y-0.6755 
G01 X0.6896 Y-0.6308 
G00 Z2.5400 
G00 X5.1216 Y-0.5088 
G01 Z-0.3500 F100.00 
G01 X5.1216 Y0.5088 F100.00 
G01 X5.8412 Y1.2284 
G01 X6.8588 Y1.2284 
G01 X7.5784 Y0.5088 
G01 X7.5784 Y-0.5088 
G01 X6.8588 Y-1.2284 
G01 X5.8412 Y-1.2284 
G01 X5.1216 Y-0.5088 
G00 Z2.5400 
G00 X4.9989 Y-3.2617 
G01 Z-0.3500 F100.00 
G01 X5.7185 Y-3.9813 F100.00 
G01 X5.7185 Y-4.9989 
G01 X4.9989 Y-5.7185 
G01 X3.9813 Y-5.7185 
G01 X3.2617 Y-4.9989 
G01 X3.2617 Y-3.9813 
G01 X3.9813 Y-3.2617 
G01 X4.9989 Y-3.2617 
G00 Z2.5400 
G00 X6.0778 Y-4.7574 
G01 Z-0.3500 F100.00 
G01 X6.1552 Y-4.7127 F100.00 
G01 X6.2415 Y-4.6895 
G01 X6.3309 Y-4.6895 
G01 X6.4172 Y-4.7127 
G01 X6.4946 Y-4.7574 
G01 X7.8150 Y-6.0778 
G01 X7.8597 Y-6.1552 
G01 X7.8828 Y-6.2415 
G01 X7.8828 Y-6.3309 
G01 X7.8597 Y-6.4172 
G01 X7.8150 Y-6.4946 
G01 X6.4946 Y-7.8150 
G01 X6.4172 Y-7.8597 
G01 X6.3309 Y-7.8828 
G01 X6.2415 Y-7.8828 
G01 X6.1552 Y-7.8597 
G01 X6.0778 Y-7.8150 
G01 X4.7574 Y-6.4946 
G01 X4.7127 Y-6.4172 
G01 X4.6895 Y-6.3309 
G01 X4.6895 Y-6.2415 
G01 X4.7127 Y-6.1552 
G01 X4.7574 Y-6.0778 
G01 X6.0778 Y-4.7574 
G00 Z2.5400 
G00 X7.7294 Y-1.0974 
G01 Z-0.3500 F100.00 
G01 X7.6847 Y-1.0200 F100.00 
G01 X7.6616 Y-0.9337 
G01 X7.6616 Y0.9337 
G01 X7.6847 Y1.0200 
G01 X7.7294 Y1.0974 
G01 X7.7926 Y1.1606 
G01 X7.8700 Y1.2053 
G01 X7.9563 Y1.2284 
G01 X9.8237 Y1.2284 
G01 X9.9100 Y1.2053 
G01 X9.9874 Y1.1606 
G01 X10.0506 Y1.0974 
G01 X10.0953 Y1.0200 
G01 X10.1184 Y0.9337 
G01 X10.1184 Y-0.9337 
G01 X10.0953 Y-1.0200 
G01 X10.0506 Y-1.0974 
G01 X9.9874 Y-1.1606 
G01 X9.9100 Y-1.2053 
G01 X9.8237 Y-1.2284 
G01 X7.9563 Y-1.2284 
G01 X7.8700 Y-1.2053 
G01 X7.7926 Y-1.1606 
G01 X7.7294 Y-1.0974 
G00 Z2.5400 
G00 X4.9989 Y3.2617 
G01 Z-0.3500 F100.00 
G01 X3.9813 Y3.2617 F100.00 
G01 X3.2617 Y3.9813 
G01 X3.2617 Y4.9989 
G01 X3.9813 Y5.7185 
G01 X4.9989 Y5.7185 
G01 X5.7185 Y4.9989 
G01 X5.7185 Y3.9813 
G01 X4.9989 Y3.2617 
G00 Z2.5400 
G00 X6.0778 Y4.7574 
G01 Z-0.3500 F100.00 
G01 X4.7574 Y6.0778 F100.00 
G01 X4.7127 Y6.1552 
G01 X4.6895 Y6.2415 
G01 X4.6895 Y6.3309 
G01 X4.7127 Y6.4172 
G01 X4.7574 Y6.4946 
G01 X6.0778 Y7.8150 
G01 X6.1552 Y7.8597 
G01 X6.2415 Y7.8828 
G01 X6.3309 Y7.8828 
G01 X6.4172 Y7.8597 
G01 X6.4946 Y7.8150 
G01 X7.8150 Y6.4946 
G01 X7.8597 Y6.4172 
G01 X7.8828 Y6.3309 
G01 X7.8828 Y6.2415 
G01 X7.8597 Y6.1552 
G01 X7.8150 Y6.0778 
G01 X6.4946 Y4.7574 
G01 X6.4172 Y4.7127 
G01 X6.3309 Y4.6895 
G01 X6.2415 Y4.6895 
G01 X6.1552 Y4.7127 
G01 X6.0778 Y4.7574 
G00 Z2.5400 
G00 X1.2284 Y5.8412 
G01 Z-0.3500 F100.00 
G01 X0.5088 Y5.1216 F100.00 
G01 X-0.5088 Y5.1216 
G01 X-1.2284 Y5.8412 
G01 X-1.2284 Y6.8588 
G01 X-0.5088 Y7.5784 
G01 X0.5088 Y7.5784 
G01 X1.2284 Y6.8588 
G01 X1.2284 Y5.8412 
G00 Z2.5400 
G00 X1.0974 Y7.7294 
G01 Z-0.3500 F100.00 
G01 X1.0200 Y7.6847 F100.00 
G01 X0.9337 Y7.6616 
G01 X-0.9337 Y7.6616 
G01 X-1.0200 Y7.6847 
G01 X-1.0974 Y7.7294 
G01 X-1.1606 Y7.7926 
G01 X-1.2053 Y7.8700 
G01 X-1.2284 Y7.9563 
G01 X-1.2284 Y9.8237 
G01 X-1.2053 Y9.9100 
G01 X-1.1606 Y9.9874 
G01 X-1.0974 Y10.0506 
G01 X-1.0200 Y10.0953 
G01 X-0.9337 Y10.1184 
G01 X0.9337 Y10.1184 
G01 X1.0200 Y10.0953 
G01 X1.0974 Y10.0506 
G01 X1.1606 Y9.9874 
G01 X1.2053 Y9.9100 
G01 X1.2284 Y9.8237 
G01 X1.2284 Y7.9563 
G01 X1.2053 Y7.8700 
G01 X1.1606 Y7.7926 
G01 X1.0974 Y7.7294 
G00 Z2.5400 
G00 X-4.7574 Y6.4946 
G01 Z-0.3500 F100.00 
G01 X-4.7127 Y6.4172 F100.00 
G01 X-4.6895 Y6.3309 
G01 X-4.6895 Y6.2415 
G01 X-4.7127 Y6.1552 
G01 X-4.7574 Y6.0778 
G01 X-6.0778 Y4.7574 
G01 X-6.1552 Y4.7127 
G01 X-6.2415 Y4.6895 
G01 X-6.3309 Y4.6895 
G01 X-6.4172 Y4.7127 
G01 X-6.4946 Y4.7574 
G01 X-7.8150 Y6.0778 
G01 X-7.8597 Y6.1552 
G01 X-7.8828 Y6.2415 
G01 X-7.8828 Y6.3309 
G01 X-7.8597 Y6.4172 
G01 X-7.8150 Y6.4946 
G01 X-6.4946 Y7.8150 
G01 X-6.4172 Y7.8597 
G01 X-6.3309 Y7.8828 
G01 X-6.2415 Y7.8828 
G01 X-6.1552 Y7.8597 
G01 X-6.0778 Y7.8150 
G01 X-4.7574 Y6.4946 
G00 Z2.5400 
G00 X-4.9989 Y5.7185 
G01 Z-0.3500 F100.00 
G01 X-3.9813 Y5.7185 F100.00 
G01 X-3.2617 Y4.9989 
G01 X-3.2617 Y3.9813 
G01 X-3.9813 Y3.2617 
G01 X-4.9989 Y3.2617 
G01 X-5.7185 Y3.9813 
G01 X-5.7185 Y4.9989 
G01 X-4.9989 Y5.7185 
G00 Z2.5400 
G00 X-5.1216 Y0.5088 
G01 Z-0.3500 F100.00 
G01 X-5.1216 Y-0.5088 F100.00 
G01 X-5.8412 Y-1.2284 
G01 X-6.8588 Y-1.2284 
G01 X-7.5784 Y-0.5088 
G01 X-7.5784 Y0.5088 
G01 X-6.8588 Y1.2284 
G01 X-5.8412 Y1.2284 
G01 X-5.1216 Y0.5088 
G00 Z2.5400 
G00 X-7.6616 Y0.9337 
G01 Z-0.3500 F100.00 
G01 X-7.6616 Y-0.9337 F100.00 
G01 X-7.6847 Y-1.0200 
G01 X-7.7294 Y-1.0974 
G01 X-7.7926 Y-1.1606 
G01 X-7.8700 Y-1.2053 
G01 X-7.9563 Y-1.2284 
G01 X-9.8237 Y-1.2284 
G01 X-9.9100 Y-1.2053 
G01 X-9.9874 Y-1.1606 
G01 X-10.0506 Y-1.0974 
G01 X-10.0953 Y-1.0200 
G01 X-10.1184 Y-0.9337 
G01 X-10.1184 Y0.9337 
G01 X-10.0953 Y1.0200 
G01 X-10.0506 Y1.0974 
G01 X-9.9874 Y1.1606 
G01 X-9.9100 Y1.2053 
G01 X-9.8237 Y1.2284 
G01 X-7.9563 Y1.2284 
G01 X-7.8700 Y1.2053 
G01 X-7.7926 Y1.1606 
G01 X-7.7294 Y1.0974 
G01 X-7.6847 Y1.0200 
G01 X-7.6616 Y0.9337 
G00 Z2.5400 
G00 X-6.4946 Y-4.7574 
G01 Z-0.3500 F100.00 
G01 X-6.4172 Y-4.7127 F100.00 
G01 X-6.3309 Y-4.6895 
G01 X-6.2415 Y-4.6895 
G01 X-6.1552 Y-4.7127 
G01 X-6.0778 Y-4.7574 
G01 X-4.7574 Y-6.0778 
G01 X-4.7127 Y-6.1552 
G01 X-4.6895 Y-6.2415 
G01 X-4.6895 Y-6.3309 
G01 X-4.7127 Y-6.4172 
G01 X-4.7574 Y-6.4946 
G01 X-6.0778 Y-7.8150 
G01 X-6.1552 Y-7.8597 
G01 X-6.2415 Y-7.8828 
G01 X-6.3309 Y-7.8828 
G01 X-6.4172 Y-7.8597 
G01 X-6.4946 Y-7.8150 
G01 X-7.8150 Y-6.4946 
G01 X-7.8597 Y-6.4172 
G01 X-7.8828 Y-6.3309 
G01 X-7.8828 Y-6.2415 
G01 X-7.8597 Y-6.1552 
G01 X-7.8150 Y-6.0778 
G01 X-6.4946 Y-4.7574 
G00 Z2.5400 
G00 X-5.7185 Y-4.9989 
G01 Z-0.3500 F100.00 
G01 X-5.7185 Y-3.9813 F100.00 
G01 X-4.9989 Y-3.2617 
G01 X-3.9813 Y-3.2617 
G01 X-3.2617 Y-3.9813 
G01 X-3.2617 Y-4.9989 
G01 X-3.9813 Y-5.7185 
G01 X-4.9989 Y-5.7185 
G01 X-5.7185 Y-4.9989 
G00 Z2.5400 
G00 X-0.5088 Y-5.1216 
G01 Z-0.3500 F100.00 
G01 X0.5088 Y-5.1216 F100.00 
G01 X1.2284 Y-5.8412 
G01 X1.2284 Y-6.8588 
G01 X0.5088 Y-7.5784 
G01 X-0.5088 Y-7.5784 
G01 X-1.2284 Y-6.8588 
G01 X-1.2284 Y-5.8412 
G01 X-0.5088 Y-5.1216 
G00 Z2.5400 
G00 X-0.9337 Y-7.6616 
G01 Z-0.3500 F100.00 
G01 X0.9337 Y-7.6616 F100.00 
G01 X1.0200 Y-7.6847 
G01 X1.0974 Y-7.7294 
G01 X1.1606 Y-7.7926 
G01 X1.2053 Y-7.8700 
G01 X1.2284 Y-7.9563 
G01 X1.2284 Y-9.8237 
G01 X1.2053 Y-9.9100 
G01 X1.1606 Y-9.9874 
G01 X1.0974 Y-10.0506 
G01 X1.0200 Y-10.0953 
G01 X0.9337 Y-10.1184 
G01 X-0.9337 Y-10.1184 
G01 X-1.0200 Y-10.0953 
G01 X-1.0974 Y-10.0506 
G01 X-1.1606 Y-9.9874 
G01 X-1.2053 Y-9.9100 
G01 X-1.2284 Y-9.8237 
G01 X-1.2284 Y-7.9563 
G01 X-1.2053 Y-7.8700 
G01 X-1.1606 Y-7.7926 
G01 X-1.0974 Y-7.7294 
G01 X-1.0200 Y-7.6847 
G01 X-0.9337 Y-7.6616 
G00 Z2.5400 
G00 X0.4574 Y-0.5781 
G01 Z-0.3500 F100.00 
G01 X0.4574 Y-1.4594 F100.00 
G01 X-0.3366 Y-2.2534 
G01 X-1.4594 Y-2.2534 
G01 X-2.2534 Y-1.4594 
G01 X-2.2534 Y-0.3366 
G01 X-1.4594 Y0.4574 
G01 X-0.5781 Y0.4574 
G01 X-0.7324 Y0.6116 
G01 X-0.7938 Y0.7180 
G01 X-0.8256 Y0.8366 
G01 X-0.8256 Y0.9594 
G01 X-0.7938 Y1.0780 
G01 X-0.7324 Y1.1844 
G01 X0.6116 Y2.5285 
G01 X0.7180 Y2.5899 
G01 X0.8366 Y2.6217 
G01 X0.9594 Y2.6217 
G01 X1.0780 Y2.5899 
G01 X1.1844 Y2.5285 
G01 X2.5285 Y1.1844 
G01 X2.5899 Y1.0780 
G01 X2.6217 Y0.9594 
G01 X2.6217 Y0.8366 
G01 X2.5899 Y0.7180 
G01 X2.5285 Y0.6116 
G01 X1.1844 Y-0.7324 
G01 X1.0780 Y-0.7938 
G01 X0.9594 Y-0.8256 
G01 X0.8366 Y-0.8256 
G01 X0.7180 Y-0.7938 
G01 X0.6116 Y-0.7324 
G01 X0.4574 Y-0.5781 
G00 Z2.5400 
G00 X0.5614 Y-4.9946 
G01 Z-0.3500 F100.00 
G01 X1.3554 Y-5.7886 F100.00 
G01 X1.3554 Y-6.9114 
G01 X0.7322 Y-7.5346 
G01 X0.9504 Y-7.5346 
G01 X1.0690 Y-7.5664 
G01 X1.1754 Y-7.6278 
G01 X1.2622 Y-7.7146 
G01 X1.3236 Y-7.8210 
G01 X1.3554 Y-7.9396 
G01 X1.3554 Y-9.8404 
G01 X1.3236 Y-9.9590 
G01 X1.2622 Y-10.0654 
G01 X1.1754 Y-10.1522 
G01 X1.0690 Y-10.2136 
G01 X0.9504 Y-10.2454 
G01 X-0.9504 Y-10.2454 
G01 X-1.0690 Y-10.2136 
G01 X-1.1754 Y-10.1522 
G01 X-1.2622 Y-10.0654 
G01 X-1.3236 Y-9.9590 
G01 X-1.3554 Y-9.8404 
G01 X-1.3554 Y-7.9396 
G01 X-1.3236 Y-7.8210 
G01 X-1.2622 Y-7.7146 
G01 X-1.1754 Y-7.6278 
G01 X-1.0690 Y-7.5664 
G01 X-0.9504 Y-7.5346 
G01 X-0.7322 Y-7.5346 
G01 X-1.3554 Y-6.9114 
G01 X-1.3554 Y-5.7886 
G01 X-0.5614 Y-4.9946 
G01 X0.5614 Y-4.9946 
G00 Z2.5400 
G00 X3.1347 Y-5.0515 
G01 Z-0.3500 F100.00 
G01 X3.1347 Y-3.9287 F100.00 
G01 X3.9287 Y-3.1347 
G01 X5.0515 Y-3.1347 
G01 X5.8455 Y-3.9287 
G01 X5.8455 Y-4.8100 
G01 X5.9998 Y-4.6557 
G01 X6.1062 Y-4.5943 
G01 X6.2248 Y-4.5625 
G01 X6.3476 Y-4.5625 
G01 X6.4662 Y-4.5943 
G01 X6.5726 Y-4.6557 
G01 X7.9166 Y-5.9998 
G01 X7.9780 Y-6.1062 
G01 X8.0098 Y-6.2248 
G01 X8.0098 Y-6.3476 
G01 X7.9780 Y-6.4662 
G01 X7.9166 Y-6.5726 
G01 X6.5726 Y-7.9166 
G01 X6.4662 Y-7.9780 
G01 X6.3476 Y-8.0098 
G01 X6.2248 Y-8.0098 
G01 X6.1062 Y-7.9780 
G01 X5.9998 Y-7.9166 
G01 X4.6557 Y-6.5726 
G01 X4.5943 Y-6.4662 
G01 X4.5625 Y-6.3476 
G01 X4.5625 Y-6.2248 
G01 X4.5943 Y-6.1062 
G01 X4.6557 Y-5.9998 
G01 X4.8100 Y-5.8455 
G01 X3.9287 Y-5.8455 
G01 X3.1347 Y-5.0515 
G00 Z2.5400 
G00 X-3.1347 Y-5.0515 
G01 Z-0.3500 F100.00 
G01 X-3.9287 Y-5.8455 F100.00 
G01 X-4.8100 Y-5.8455 
G01 X-4.6557 Y-5.9998 
G01 X-4.5943 Y-6.1062 
G01 X-4.5625 Y-6.2248 
G01 X-4.5625 Y-6.3476 
G01 X-4.5943 Y-6.4662 
G01 X-4.6557 Y-6.5726 
G01 X-5.9998 Y-7.9166 
G01 X-6.1062 Y-7.9780 
G01 X-6.2248 Y-8.0098 
G01 X-6.3476 Y-8.0098 
G01 X-6.4662 Y-7.9780 
G01 X-6.5726 Y-7.9166 
G01 X-7.9166 Y-6.5726 
G01 X-7.9780 Y-6.4662 
G01 X-8.0098 Y-6.3476 
G01 X-8.0098 Y-6.2248 
G01 X-7.9780 Y-6.1062 
G01 X-7.9166 Y-5.9998 
G01 X-6.5726 Y-4.6557 
G01 X-6.4662 Y-4.5943 
G01 X-6.3476 Y-4.5625 
G01 X-6.2248 Y-4.5625 
G01 X-6.1062 Y-4.5943 
G01 X-5.9998 Y-4.6557 
G01 X-5.8455 Y-4.8100 
G01 X-5.8455 Y-3.9287 
G01 X-5.0515 Y-3.1347 
G01 X-3.9287 Y-3.1347 
G01 X-3.1347 Y-3.9287 
G01 X-3.1347 Y-5.0515 
G00 Z2.5400 
G00 X-4.9946 Y-0.5614 
G01 Z-0.3500 F100.00 
G01 X-5.7886 Y-1.3554 F100.00 
G01 X-6.9114 Y-1.3554 
G01 X-7.5346 Y-0.7322 
G01 X-7.5346 Y-0.9504 
G01 X-7.5664 Y-1.0690 
G01 X-7.6278 Y-1.1754 
G01 X-7.7146 Y-1.2622 
G01 X-7.8210 Y-1.3236 
G01 X-7.9396 Y-1.3554 
G01 X-9.8404 Y-1.3554 
G01 X-9.9590 Y-1.3236 
G01 X-10.0654 Y-1.2622 
G01 X-10.1522 Y-1.1754 
G01 X-10.2136 Y-1.0690 
G01 X-10.2454 Y-0.9504 
G01 X-10.2454 Y0.9504 
G01 X-10.2136 Y1.0690 
G01 X-10.1522 Y1.1754 
G01 X-10.0654 Y1.2622 
G01 X-9.9590 Y1.3236 
G01 X-9.8404 Y1.3554 
G01 X-7.9396 Y1.3554 
G01 X-7.8210 Y1.3236 
G01 X-7.7146 Y1.2622 
G01 X-7.6278 Y1.1754 
G01 X-7.5664 Y1.0690 
G01 X-7.5346 Y0.9504 
G01 X-7.5346 Y0.7322 
G01 X-6.9114 Y1.3554 
G01 X-5.7886 Y1.3554 
G01 X-4.9946 Y0.5614 
G01 X-4.9946 Y-0.5614 
G00 Z2.5400 
G00 X-5.0515 Y3.1347 
G01 Z-0.3500 F100.00 
G01 X-5.8455 Y3.9287 F100.00 
G01 X-5.8455 Y4.8100 
G01 X-5.9998 Y4.6557 
G01 X-6.1062 Y4.5943 
G01 X-6.2248 Y4.5625 
G01 X-6.3476 Y4.5625 
G01 X-6.4662 Y4.5943 
G01 X-6.5726 Y4.6557 
G01 X-7.9166 Y5.9998 
G01 X-7.9780 Y6.1062 
G01 X-8.0098 Y6.2248 
G01 X-8.0098 Y6.3476 
G01 X-7.9780 Y6.4662 
G01 X-7.9166 Y6.5726 
G01 X-6.5726 Y7.9166 
G01 X-6.4662 Y7.9780 
G01 X-6.3476 Y8.0098 
G01 X-6.2248 Y8.0098 
G01 X-6.1062 Y7.9780 
G01 X-5.9998 Y7.9166 
G01 X-4.6557 Y6.5726 
G01 X-4.5943 Y6.4662 
G01 X-4.5625 Y6.3476 
G01 X-4.5625 Y6.2248 
G01 X-4.5943 Y6.1062 
G01 X-4.6557 Y5.9998 
G01 X-4.8100 Y5.8455 
G01 X-3.9287 Y5.8455 
G01 X-3.1347 Y5.0515 
G01 X-3.1347 Y3.9287 
G01 X-3.9287 Y3.1347 
G01 X-5.0515 Y3.1347 
G00 Z2.5400 
G00 X-1.3554 Y5.7886 
G01 Z-0.3500 F100.00 
G01 X-1.3554 Y6.9114 F100.00 
G01 X-0.7322 Y7.5346 
G01 X-0.9504 Y7.5346 
G01 X-1.0690 Y7.5664 
G01 X-1.1754 Y7.6278 
G01 X-1.2622 Y7.7146 
G01 X-1.3236 Y7.8210 
G01 X-1.3554 Y7.9396 
G01 X-1.3554 Y9.8404 
G01 X-1.3236 Y9.9590 
G01 X-1.2622 Y10.0654 
G01 X-1.1754 Y10.1522 
G01 X-1.0690 Y10.2136 
G01 X-0.9504 Y10.2454 
G01 X0.9504 Y10.2454 
G01 X1.0690 Y10.2136 
G01 X1.1754 Y10.1522 
G01 X1.2622 Y10.0654 
G01 X1.3236 Y9.9590 
G01 X1.3554 Y9.8404 
G01 X1.3554 Y7.9396 
G01 X1.3236 Y7.8210 
G01 X1.2622 Y7.7146 
G01 X1.1754 Y7.6278 
G01 X1.0690 Y7.5664 
G01 X0.9504 Y7.5346 
G01 X0.7322 Y7.5346 
G01 X1.3554 Y6.9114 
G01 X1.3554 Y5.7886 
G01 X0.5614 Y4.9946 
G01 X-0.5614 Y4.9946 
G01 X-1.3554 Y5.7886 
G00 Z2.5400 
G00 X3.1347 Y5.0515 
G01 Z-0.3500 F100.00 
G01 X3.9287 Y5.8455 F100.00 
G01 X4.8100 Y5.8455 
G01 X4.6557 Y5.9998 
G01 X4.5943 Y6.1062 
G01 X4.5625 Y6.2248 
G01 X4.5625 Y6.3476 
G01 X4.5943 Y6.4662 
G01 X4.6557 Y6.5726 
G01 X5.9998 Y7.9166 
G01 X6.1062 Y7.9780 
G01 X6.2248 Y8.0098 
G01 X6.3476 Y8.0098 
G01 X6.4662 Y7.9780 
G01 X6.5726 Y7.9166 
G01 X7.9166 Y6.5726 
G01 X7.9780 Y6.4662 
G01 X8.0098 Y6.3476 
G01 X8.0098 Y6.2248 
G01 X7.9780 Y6.1062 
G01 X7.9166 Y5.9998 
G01 X6.5726 Y4.6557 
G01 X6.4662 Y4.5943 
G01 X6.3476 Y4.5625 
G01 X6.2248 Y4.5625 
G01 X6.1062 Y4.5943 
G01 X5.9998 Y4.6557 
G01 X5.8455 Y4.8100 
G01 X5.8455 Y3.9287 
G01 X5.0515 Y3.1347 
G01 X3.9287 Y3.1347 
G01 X3.1347 Y3.9287 
G01 X3.1347 Y5.0515 
G00 Z2.5400 
G00 X5.7886 Y1.3554 
G01 Z-0.3500 F100.00 
G01 X6.9114 Y1.3554 F100.00 
G01 X7.5346 Y0.7322 
G01 X7.5346 Y0.9504 
G01 X7.5664 Y1.0690 
G01 X7.6278 Y1.1754 
G01 X7.7146 Y1.2622 
G01 X7.8210 Y1.3236 
G01 X7.9396 Y1.3554 
G01 X9.8404 Y1.3554 
G01 X9.9590 Y1.3236 
G01 X10.0654 Y1.2622 
G01 X10.1522 Y1.1754 
G01 X10.2136 Y1.0690 
G01 X10.2454 Y0.9504 
G01 X10.2454 Y-0.9504 
G01 X10.2136 Y-1.0690 
G01 X10.1522 Y-1.1754 
G01 X10.0654 Y-1.2622 
G01 X9.9590 Y-1.3236 
G01 X9.8404 Y-1.3554 
G01 X7.9396 Y-1.3554 
G01 X7.8210 Y-1.3236 
G01 X7.7146 Y-1.2622 
G01 X7.6278 Y-1.1754 
G01 X7.5664 Y-1.0690 
G01 X7.5346 Y-0.9504 
G01 X7.5346 Y-0.7322 
G01 X6.9114 Y-1.3554 
G01 X5.7886 Y-1.3554 
G01 X4.9946 Y-0.5614 
G01 X4.9946 Y0.5614 
G01 X5.7886 Y1.3554 
G00 Z2.5400 
G00 X0.5844 Y-0.8633 
G01 Z-0.3500 F100.00 
G01 X0.5844 Y-1.5121 F100.00 
G01 X-0.2840 Y-2.3804 
G01 X-1.5121 Y-2.3804 
G01 X-2.3804 Y-1.5121 
G01 X-2.3804 Y-0.2840 
G01 X-1.5121 Y0.5844 
G01 X-0.8633 Y0.5844 
G01 X-0.8851 Y0.6169 
G01 X-0.9298 Y0.7249 
G01 X-0.9526 Y0.8396 
G01 X-0.9526 Y0.9565 
G01 X-0.9298 Y1.0711 
G01 X-0.8851 Y1.1791 
G01 X-0.8201 Y1.2763 
G01 X0.5198 Y2.6162 
G01 X0.6169 Y2.6811 
G01 X0.7249 Y2.7259 
G01 X0.8396 Y2.7487 
G01 X0.9565 Y2.7487 
G01 X1.0711 Y2.7259 
G01 X1.1791 Y2.6811 
G01 X1.2763 Y2.6162 
G01 X2.6162 Y1.2763 
G01 X2.6811 Y1.1791 
G01 X2.7259 Y1.0711 
G01 X2.7487 Y0.9565 
G01 X2.7487 Y0.8396 
G01 X2.7259 Y0.7249 
G01 X2.6811 Y0.6169 
G01 X2.6162 Y0.5198 
G01 X1.2763 Y-0.8201 
G01 X1.1791 Y-0.8851 
G01 X1.0711 Y-0.9298 
G01 X0.9565 Y-0.9526 
G01 X0.8396 Y-0.9526 
G01 X0.7249 Y-0.9298 
G01 X0.6169 Y-0.8851 
G01 X0.5844 Y-0.8633 
G00 Z2.5400 
G00 X0.6140 Y-4.8676 
G01 Z-0.3500 F100.00 
G01 X1.4824 Y-5.7360 F100.00 
G01 X1.4824 Y-6.9640 
G01 X1.0237 Y-7.4228 
G01 X1.0621 Y-7.4304 
G01 X1.1701 Y-7.4751 
G01 X1.2673 Y-7.5401 
G01 X1.3499 Y-7.6227 
G01 X1.4149 Y-7.7199 
G01 X1.4596 Y-7.8279 
G01 X1.4824 Y-7.9426 
G01 X1.4824 Y-9.8374 
G01 X1.4596 Y-9.9521 
G01 X1.4149 Y-10.0601 
G01 X1.3499 Y-10.1573 
G01 X1.2673 Y-10.2399 
G01 X1.1701 Y-10.3049 
G01 X1.0621 Y-10.3496 
G01 X0.9474 Y-10.3724 
G01 X-0.9474 Y-10.3724 
G01 X-1.0621 Y-10.3496 
G01 X-1.1701 Y-10.3049 
G01 X-1.2673 Y-10.2399 
G01 X-1.3499 Y-10.1573 
G01 X-1.4149 Y-10.0601 
G01 X-1.4596 Y-9.9521 
G01 X-1.4824 Y-9.8374 
G01 X-1.4824 Y-7.9426 
G01 X-1.4596 Y-7.8279 
G01 X-1.4149 Y-7.7199 
G01 X-1.3499 Y-7.6227 
G01 X-1.2673 Y-7.5401 
G01 X-1.1701 Y-7.4751 
G01 X-1.0621 Y-7.4304 
G01 X-1.0237 Y-7.4228 
G01 X-1.4824 Y-6.9640 
G01 X-1.4824 Y-5.7360 
G01 X-0.6140 Y-4.8676 
G01 X0.6140 Y-4.8676 
G00 Z2.5400 
G00 X3.0077 Y-5.1042 
G01 Z-0.3500 F100.00 
G01 X3.0077 Y-3.8761 F100.00 
G01 X3.8761 Y-3.0077 
G01 X5.1042 Y-3.0077 
G01 X5.9725 Y-3.8761 
G01 X5.9725 Y-4.5248 
G01 X6.0051 Y-4.5031 
G01 X6.1131 Y-4.4583 
G01 X6.2277 Y-4.4355 
G01 X6.3446 Y-4.4355 
G01 X6.4593 Y-4.4583 
G01 X6.5673 Y-4.5031 
G01 X6.6644 Y-4.5680 
G01 X8.0043 Y-5.9079 
G01 X8.0693 Y-6.0051 
G01 X8.1140 Y-6.1131 
G01 X8.1368 Y-6.2277 
G01 X8.1368 Y-6.3446 
G01 X8.1140 Y-6.4593 
G01 X8.0693 Y-6.5673 
G01 X8.0043 Y-6.6644 
G01 X6.6644 Y-8.0043 
G01 X6.5673 Y-8.0693 
G01 X6.4593 Y-8.1140 
G01 X6.3446 Y-8.1368 
G01 X6.2277 Y-8.1368 
G01 X6.1131 Y-8.1140 
G01 X6.0051 Y-8.0693 
G01 X5.9079 Y-8.0043 
G01 X4.5680 Y-6.6644 
G01 X4.5031 Y-6.5673 
G01 X4.4583 Y-6.4593 
G01 X4.4355 Y-6.3446 
G01 X4.4355 Y-6.2277 
G01 X4.4583 Y-6.1131 
G01 X4.5031 Y-6.0051 
G01 X4.5248 Y-5.9725 
G01 X3.8761 Y-5.9725 
G01 X3.0077 Y-5.1042 
G00 Z2.5400 
G00 X-3.0077 Y-5.1042 
G01 Z-0.3500 F100.00 
G01 X-3.8761 Y-5.9725 F100.00 
G01 X-4.5248 Y-5.9725 
G01 X-4.5031 Y-6.0051 
G01 X-4.4583 Y-6.1131 
G01 X-4.4355 Y-6.2277 
G01 X-4.4355 Y-6.3446 
G01 X-4.4583 Y-6.4593 
G01 X-4.5031 Y-6.5673 
G01 X-4.5680 Y-6.6644 
G01 X-5.9079 Y-8.0043 
G01 X-6.0051 Y-8.0693 
G01 X-6.1131 Y-8.1140 
G01 X-6.2277 Y-8.1368 
G01 X-6.3446 Y-8.1368 
G01 X-6.4593 Y-8.1140 
G01 X-6.5673 Y-8.0693 
G01 X-6.6644 Y-8.0043 
G01 X-8.0043 Y-6.6644 
G01 X-8.0693 Y-6.5673 
G01 X-8.1140 Y-6.4593 
G01 X-8.1368 Y-6.3446 
G01 X-8.1368 Y-6.2277 
G01 X-8.1140 Y-6.1131 
G01 X-8.0693 Y-6.0051 
G01 X-8.0043 Y-5.9079 
G01 X-6.6644 Y-4.5680 
G01 X-6.5673 Y-4.5031 
G01 X-6.4593 Y-4.4583 
G01 X-6.3446 Y-4.4355 
G01 X-6.2277 Y-4.4355 
G01 X-6.1131 Y-4.4583 
G01 X-6.0051 Y-4.5031 
G01 X-5.9725 Y-4.5248 
G01 X-5.9725 Y-3.8761 
G01 X-5.1042 Y-3.0077 
G01 X-3.8761 Y-3.0077 
G01 X-3.0077 Y-3.8761 
G01 X-3.0077 Y-5.1042 
G00 Z2.5400 
G00 X-4.8676 Y-0.6140 
G01 Z-0.3500 F100.00 
G01 X-5.7360 Y-1.4824 F100.00 
G01 X-6.9640 Y-1.4824 
G01 X-7.4228 Y-1.0237 
G01 X-7.4304 Y-1.0621 
G01 X-7.4751 Y-1.1701 
G01 X-7.5401 Y-1.2673 
G01 X-7.6227 Y-1.3499 
G01 X-7.7199 Y-1.4149 
G01 X-7.8279 Y-1.4596 
G01 X-7.9426 Y-1.4824 
G01 X-9.8374 Y-1.4824 
G01 X-9.9521 Y-1.4596 
G01 X-10.0601 Y-1.4149 
G01 X-10.1573 Y-1.3499 
G01 X-10.2399 Y-1.2673 
G01 X-10.3049 Y-1.1701 
G01 X-10.3496 Y-1.0621 
G01 X-10.3724 Y-0.9474 
G01 X-10.3724 Y0.9474 
G01 X-10.3496 Y1.0621 
G01 X-10.3049 Y1.1701 
G01 X-10.2399 Y1.2673 
G01 X-10.1573 Y1.3499 
G01 X-10.0601 Y1.4149 
G01 X-9.9521 Y1.4596 
G01 X-9.8374 Y1.4824 
G01 X-7.9426 Y1.4824 
G01 X-7.8279 Y1.4596 
G01 X-7.7199 Y1.4149 
G01 X-7.6227 Y1.3499 
G01 X-7.5401 Y1.2673 
G01 X-7.4751 Y1.1701 
G01 X-7.4304 Y1.0621 
G01 X-7.4228 Y1.0237 
G01 X-6.9640 Y1.4824 
G01 X-5.7360 Y1.4824 
G01 X-4.8676 Y0.6140 
G01 X-4.8676 Y-0.6140 
G00 Z2.5400 
G00 X-5.1042 Y3.0077 
G01 Z-0.3500 F100.00 
G01 X-5.9725 Y3.8761 F100.00 
G01 X-5.9725 Y4.5248 
G01 X-6.0051 Y4.5031 
G01 X-6.1131 Y4.4583 
G01 X-6.2277 Y4.4355 
G01 X-6.3446 Y4.4355 
G01 X-6.4593 Y4.4583 
G01 X-6.5673 Y4.5031 
G01 X-6.6644 Y4.5680 
G01 X-8.0043 Y5.9079 
G01 X-8.0693 Y6.0051 
G01 X-8.1140 Y6.1131 
G01 X-8.1368 Y6.2277 
G01 X-8.1368 Y6.3446 
G01 X-8.1140 Y6.4593 
G01 X-8.0693 Y6.5673 
G01 X-8.0043 Y6.6644 
G01 X-6.6644 Y8.0043 
G01 X-6.5673 Y8.0693 
G01 X-6.4593 Y8.1140 
G01 X-6.3446 Y8.1368 
G01 X-6.2277 Y8.1368 
G01 X-6.1131 Y8.1140 
G01 X-6.0051 Y8.0693 
G01 X-5.9079 Y8.0043 
G01 X-4.5680 Y6.6644 
G01 X-4.5031 Y6.5673 
G01 X-4.4583 Y6.4593 
G01 X-4.4355 Y6.3446 
G01 X-4.4355 Y6.2277 
G01 X-4.4583 Y6.1131 
G01 X-4.5031 Y6.0051 
G01 X-4.5248 Y5.9725 
G01 X-3.8761 Y5.9725 
G01 X-3.0077 Y5.1042 
G01 X-3.0077 Y3.8761 
G01 X-3.8761 Y3.0077 
G01 X-5.1042 Y3.0077 
G00 Z2.5400 
G00 X-1.4824 Y5.7360 
G01 Z-0.3500 F100.00 
G01 X-1.4824 Y6.9640 F100.00 
G01 X-1.0237 Y7.4228 
G01 X-1.0621 Y7.4304 
G01 X-1.1701 Y7.4751 
G01 X-1.2673 Y7.5401 
G01 X-1.3499 Y7.6227 
G01 X-1.4149 Y7.7199 
G01 X-1.4596 Y7.8279 
G01 X-1.4824 Y7.9426 
G01 X-1.4824 Y9.8374 
G01 X-1.4596 Y9.9521 
G01 X-1.4149 Y10.0601 
G01 X-1.3499 Y10.1573 
G01 X-1.2673 Y10.2399 
G01 X-1.1701 Y10.3049 
G01 X-1.0621 Y10.3496 
G01 X-0.9474 Y10.3724 
G01 X0.9474 Y10.3724 
G01 X1.0621 Y10.3496 
G01 X1.1701 Y10.3049 
G01 X1.2673 Y10.2399 
G01 X1.3499 Y10.1573 
G01 X1.4149 Y10.0601 
G01 X1.4596 Y9.9521 
G01 X1.4824 Y9.8374 
G01 X1.4824 Y7.9426 
G01 X1.4596 Y7.8279 
G01 X1.4149 Y7.7199 
G01 X1.3499 Y7.6227 
G01 X1.2673 Y7.5401 
G01 X1.1701 Y7.4751 
G01 X1.0621 Y7.4304 
G01 X1.0237 Y7.4228 
G01 X1.4824 Y6.9640 
G01 X1.4824 Y5.7360 
G01 X0.6140 Y4.8676 
G01 X-0.6140 Y4.8676 
G01 X-1.4824 Y5.7360 
G00 Z2.5400 
G00 X3.0077 Y5.1042 
G01 Z-0.3500 F100.00 
G01 X3.8761 Y5.9725 F100.00 
G01 X4.5248 Y5.9725 
G01 X4.5031 Y6.0051 
G01 X4.4583 Y6.1131 
G01 X4.4355 Y6.2277 
G01 X4.4355 Y6.3446 
G01 X4.4583 Y6.4593 
G01 X4.5031 Y6.5673 
G01 X4.5680 Y6.6644 
G01 X5.9079 Y8.0043 
G01 X6.0051 Y8.0693 
G01 X6.1131 Y8.1140 
G01 X6.2277 Y8.1368 
G01 X6.3446 Y8.1368 
G01 X6.4593 Y8.1140 
G01 X6.5673 Y8.0693 
G01 X6.6644 Y8.0043 
G01 X8.0043 Y6.6644 
G01 X8.0693 Y6.5673 
G01 X8.1140 Y6.4593 
G01 X8.1368 Y6.3446 
G01 X8.1368 Y6.2277 
G01 X8.1140 Y6.1131 
G01 X8.0693 Y6.0051 
G01 X8.0043 Y5.9079 
G01 X6.6644 Y4.5680 
G01 X6.5673 Y4.5031 
G01 X6.4593 Y4.4583 
G01 X6.3446 Y4.4355 
G01 X6.2277 Y4.4355 
G01 X6.1131 Y4.4583 
G01 X6.0051 Y4.5031 
G01 X5.9725 Y4.5248 
G01 X5.9725 Y3.8761 
G01 X5.1042 Y3.0077 
G01 X3.8761 Y3.0077 
G01 X3.0077 Y3.8761 
G01 X3.0077 Y5.1042 
G00 Z2.5400 
G00 X5.7360 Y1.4824 
G01 Z-0.3500 F100.00 
G01 X6.9640 Y1.4824 F100.00 
G01 X7.4228 Y1.0237 
G01 X7.4304 Y1.0621 
G01 X7.4751 Y1.1701 
G01 X7.5401 Y1.2673 
G01 X7.6227 Y1.3499 
G01 X7.7199 Y1.4149 
G01 X7.8279 Y1.4596 
G01 X7.9426 Y1.4824 
G01 X9.8374 Y1.4824 
G01 X9.9521 Y1.4596 
G01 X10.0601 Y1.4149 
G01 X10.1573 Y1.3499 
G01 X10.2399 Y1.2673 
G01 X10.3049 Y1.1701 
G01 X10.3496 Y1.0621 
G01 X10.3724 Y0.9474 
G01 X10.3724 Y-0.9474 
G01 X10.3496 Y-1.0621 
G01 X10.3049 Y-1.1701 
G01 X10.2399 Y-1.2673 
G01 X10.1573 Y-1.3499 
G01 X10.0601 Y-1.4149 
G01 X9.9521 Y-1.4596 
G01 X9.8374 Y-1.4824 
G01 X7.9426 Y-1.4824 
G01 X7.8279 Y-1.4596 
G01 X7.7199 Y-1.4149 
G01 X7.6227 Y-1.3499 
G01 X7.5401 Y-1.2673 
G01 X7.4751 Y-1.1701 
G01 X7.4304 Y-1.0621 
G01 X7.4228 Y-1.0237 
G01 X6.9640 Y-1.4824 
G01 X5.7360 Y-1.4824 
G01 X4.8676 Y-0.6140 
G01 X4.8676 Y0.6140 
G01 X5.7360 Y1.4824 
G00 Z2.5400 
G00 Z2.540000
G00 X-0.8980 Y-0.8980 
G01 Z-0.2794 F200.00 
G01 Z2.540000
(R2.5400  P1.000000)
G00 X0.8980 Y0.8980 
G01 Z-0.200000
G01 Z2.540000
G00 X-4.4901 Y4.4901 
G01 Z-0.200000
G01 Z2.540000
G00 X-6.2862 Y6.2862 
G01 Z-0.200000
G01 Z2.540000
G00 X4.4901 Y-4.4901 
G01 Z-0.200000
G01 Z2.540000
G00 X6.2862 Y-6.2862 
G01 Z-0.200000
G01 Z2.540000
G00 X-4.4901 Y-4.4901 
G01 Z-0.200000
G01 Z2.540000
G00 X-6.2862 Y-6.2862 
G01 Z-0.200000
G01 Z2.540000
G00 X-6.3500 Y0.0000 
G01 Z-0.200000
G01 Z2.540000
G00 X-8.8900 Y0.0000 
G01 Z-0.200000
G01 Z2.540000
G00 X4.4901 Y4.4901 
G01 Z-0.200000
G01 Z2.540000
G00 X6.2862 Y6.2862 
G01 Z-0.200000
G01 Z2.540000
G00 X0.0000 Y-6.3500 
G01 Z-0.200000
G01 Z2.540000
G00 X0.0000 Y-8.8900 
G01 Z-0.200000
G01 Z2.540000
G00 X6.3500 Y0.0000 
G01 Z-0.200000
G01 Z2.540000
G00 X8.8900 Y0.0000 
G01 Z-0.200000
G01 Z2.540000
G00 X0.0000 Y6.3500 
G01 Z-0.200000
G01 Z2.540000
G00 X0.0000 Y8.8900 
G01 Z-0.200000
G01 Z2.540000
G00 Z12.7000 
M05
M02
