(.../_Drive/eagle/ULP/pcb-gcode.ulp)
(Copyright 2005 - 2012 by John Johnson)
(See readme.txt for licensing terms.)
(This file generated from the board:)
(.../_Drive/eagle/LED/FlashLight.brd)
(Current profile is .../eagle/ULP/profiles/generic.pp  )
(This file generated 12.07.2016 22:36)
(Settings from pcb-machine.h)
(spindle on time = 3.0000)
(  Tool Size)
(0.1200 )
(spindle speed = 30000.0000)
(tool change at 0.0000 0.0000 25.4000 )
(feed rate xy = F100.00 )
(feed rate z  = F100.00 )
(Z Axis Settings)
(  High     Up        Down     Drill)
(12.7000 	2.5400 	-0.3500 	-0.2000 )
(Settings from pcb-defaults.h)
(isolate min = 0.0254)
(isolate max = 0.5080)
(isolate step = 0.1270)
(Generated top outlines, top drill, bottom outlines, bottom drill, )
(Unit of measure: mm)
(Metric Mode)
G21
(Absolute Coordinates)
G90
S30000
G00 Z12.7000 
G00 X0.0000 Y0.0000 
M03
G04 P3.000000
G00 Z2.5400 
G00 X0.0764 Y-0.4944 
G01 Z-0.3500 F100.00 
G01 X-0.4944 Y0.0764 F100.00 
G01 X-1.3016 Y0.0764 
G01 X-1.8724 Y-0.4944 
G01 X-1.8724 Y-0.8536 
G01 X-2.2143 Y-1.1955 
G01 X-2.2251 Y-1.1846 
G01 X-2.2565 Y-1.1716 
G01 X-4.0935 Y-1.1716 
G01 X-4.1249 Y-1.1846 
G01 X-4.1489 Y-1.2086 
G01 X-4.1619 Y-1.2400 
G01 X-4.1619 Y-2.8740 
G01 X-4.1489 Y-2.9054 
G01 X-4.1249 Y-2.9294 
G01 X-4.0935 Y-2.9424 
G01 X-3.9612 Y-2.9424 
G01 X-4.2372 Y-3.2184 
G01 X-5.3950 Y-0.4230 
G01 X-5.3756 Y-0.4036 
G01 X-5.3756 Y0.4036 
G01 X-5.3950 Y0.4230 
G01 X-4.1140 Y3.5157 
G01 X-4.0865 Y3.5157 
G01 X-3.5157 Y4.0865 
G01 X-3.5157 Y4.1140 
G01 X-0.4230 Y5.3950 
G01 X-0.4036 Y5.3756 
G01 X0.4036 Y5.3756 
G01 X0.9744 Y5.9464 
G01 X0.9744 Y6.7536 
G01 X0.4036 Y7.3244 
G01 X-0.4036 Y7.3244 
G01 X-0.9744 Y6.7536 
G01 X-0.9744 Y6.7261 
G01 X-4.0671 Y5.4451 
G01 X-4.0865 Y5.4645 
G01 X-4.8937 Y5.4645 
G01 X-5.4645 Y4.8937 
G01 X-5.4645 Y4.0865 
G01 X-5.4451 Y4.0671 
G01 X-6.7261 Y0.9744 
G01 X-6.7536 Y0.9744 
G01 X-7.3244 Y0.4036 
G01 X-7.3244 Y-0.4036 
G01 X-6.7536 Y-0.9744 
G01 X-6.7261 Y-0.9744 
G01 X-5.4451 Y-4.0671 
G01 X-5.4645 Y-4.0865 
G01 X-5.4645 Y-4.8937 
G01 X-4.8937 Y-5.4645 
G01 X-4.0865 Y-5.4645 
G01 X-4.0671 Y-5.4451 
G01 X-0.9744 Y-6.7261 
G01 X-0.9744 Y-6.7536 
G01 X-0.4036 Y-7.3244 
G01 X0.4036 Y-7.3244 
G01 X0.9744 Y-6.7536 
G01 X0.9744 Y-6.7261 
G01 X4.0671 Y-5.4451 
G01 X4.0865 Y-5.4645 
G01 X4.8937 Y-5.4645 
G01 X5.4645 Y-4.8937 
G01 X5.4645 Y-4.0865 
G01 X5.4451 Y-4.0671 
G01 X6.7261 Y-0.9744 
G01 X6.7536 Y-0.9744 
G01 X7.3244 Y-0.4036 
G01 X7.3244 Y0.4036 
G01 X6.7536 Y0.9744 
G01 X6.7261 Y0.9744 
G01 X5.4451 Y4.0671 
G01 X5.4645 Y4.0865 
G01 X5.4645 Y4.8937 
G01 X4.8937 Y5.4645 
G01 X4.0865 Y5.4645 
G01 X3.5157 Y4.8937 
G01 X3.5157 Y4.0865 
G01 X4.0865 Y3.5157 
G01 X4.1140 Y3.5157 
G01 X5.3950 Y0.4230 
G01 X5.3756 Y0.4036 
G01 X5.3756 Y-0.4036 
G01 X5.3950 Y-0.4230 
G01 X4.1140 Y-3.5157 
G01 X4.0865 Y-3.5157 
G01 X3.5157 Y-4.0865 
G01 X3.5157 Y-4.1140 
G01 X0.4230 Y-5.3950 
G01 X0.4036 Y-5.3756 
G01 X-0.4036 Y-5.3756 
G01 X-0.4230 Y-5.3950 
G01 X-3.2184 Y-4.2372 
G01 X-2.0462 Y-3.0650 
G01 X-2.0096 Y-3.0326 
G01 X-1.9961 Y-3.0149 
G01 X-1.9804 Y-2.9992 
G01 X-0.8536 Y-1.8724 
G01 X-0.4944 Y-1.8724 
G01 X0.0764 Y-1.3016 
G01 X0.0764 Y-0.4944 
G00 Z2.5400 
G00 X0.8496 Y-0.4316 
G01 Z-0.3500 F100.00 
G01 X0.8810 Y-0.4446 F100.00 
G01 X0.9150 Y-0.4446 
G01 X0.9464 Y-0.4316 
G01 X2.2277 Y0.8496 
G01 X2.2407 Y0.8810 
G01 X2.2407 Y0.9150 
G01 X2.2277 Y0.9464 
G01 X1.8148 Y1.3592 
G01 X3.5970 Y6.6203 
G01 X5.2649 Y5.9295 
G01 X5.9295 Y5.2649 
G01 X7.9156 Y0.4699 
G01 X7.9156 Y-0.4699 
G01 X5.9295 Y-5.2649 
G01 X5.2649 Y-5.9295 
G01 X0.4699 Y-7.9156 
G01 X-0.4699 Y-7.9156 
G01 X-5.2649 Y-5.9295 
G01 X-5.9295 Y-5.2649 
G01 X-7.9156 Y-0.4699 
G01 X-7.9156 Y0.4699 
G01 X-5.9295 Y5.2649 
G01 X-5.2649 Y5.9295 
G01 X-0.4699 Y7.9156 
G01 X0.4699 Y7.9156 
G01 X2.2629 Y7.1729 
G01 X0.4537 Y1.8317 
G01 X-0.4316 Y0.9464 
G01 X-0.4446 Y0.9150 
G01 X-0.4446 Y0.8810 
G01 X-0.4316 Y0.8496 
G01 X0.8496 Y-0.4316 
G00 Z2.5400 
G00 X-2.2251 Y-0.0854 
G01 Z-0.3500 F100.00 
G01 X-2.2011 Y-0.0614 F100.00 
G01 X-2.1881 Y-0.0300 
G01 X-2.1881 Y0.9213 
G01 X-1.5373 Y1.8196 
G01 X-0.6180 Y1.8196 
G01 X-0.5866 Y1.8326 
G01 X-0.5626 Y1.8566 
G01 X-0.5496 Y1.8880 
G01 X-0.5496 Y3.1920 
G01 X-0.5626 Y3.2234 
G01 X-0.5866 Y3.2474 
G01 X-0.6180 Y3.2604 
G01 X-1.8913 Y3.2604 
G01 X-1.9486 Y3.2626 
G01 X-1.9622 Y3.2604 
G01 X-3.1920 Y3.2604 
G01 X-3.2234 Y3.2474 
G01 X-3.2474 Y3.2234 
G01 X-3.2604 Y3.1920 
G01 X-3.2604 Y1.8970 
G01 X-3.4231 Y1.6724 
G01 X-4.0935 Y1.6724 
G01 X-4.1249 Y1.6594 
G01 X-4.1489 Y1.6354 
G01 X-4.1619 Y1.6040 
G01 X-4.1619 Y-0.0300 
G01 X-4.1489 Y-0.0614 
G01 X-4.1249 Y-0.0854 
G01 X-4.0935 Y-0.0984 
G01 X-2.2565 Y-0.0984 
G01 X-2.2251 Y-0.0854 
G00 Z2.5400 
G00 X-9.2661 Y-0.9744 
G01 Z-0.3500 F100.00 
G01 X-7.2412 Y-5.8631 F100.00 
G01 X-7.6158 Y-6.2378 
G01 X-7.6288 Y-6.2692 
G01 X-7.6288 Y-6.3032 
G01 X-7.6158 Y-6.3346 
G01 X-6.3346 Y-7.6158 
G01 X-6.3032 Y-7.6288 
G01 X-6.2692 Y-7.6288 
G01 X-6.2378 Y-7.6158 
G01 X-5.8631 Y-7.2412 
G01 X-0.9744 Y-9.2661 
G01 X-0.9744 Y-9.7960 
G01 X-0.9614 Y-9.8274 
G01 X-0.9374 Y-9.8514 
G01 X-0.9060 Y-9.8644 
G01 X0.9060 Y-9.8644 
G01 X0.9374 Y-9.8514 
G01 X0.9614 Y-9.8274 
G01 X0.9744 Y-9.7960 
G01 X0.9744 Y-9.2661 
G01 X5.8631 Y-7.2412 
G01 X6.2378 Y-7.6158 
G01 X6.2692 Y-7.6288 
G01 X6.3032 Y-7.6288 
G01 X6.3346 Y-7.6158 
G01 X7.6158 Y-6.3346 
G01 X7.6288 Y-6.3032 
G01 X7.6288 Y-6.2692 
G01 X7.6158 Y-6.2378 
G01 X7.2412 Y-5.8631 
G01 X9.2661 Y-0.9744 
G01 X9.7960 Y-0.9744 
G01 X9.8274 Y-0.9614 
G01 X9.8514 Y-0.9374 
G01 X9.8644 Y-0.9060 
G01 X9.8644 Y0.9060 
G01 X9.8514 Y0.9374 
G01 X9.8274 Y0.9614 
G01 X9.7960 Y0.9744 
G01 X9.2661 Y0.9744 
G01 X7.2412 Y5.8631 
G01 X7.6158 Y6.2378 
G01 X7.6288 Y6.2692 
G01 X7.6288 Y6.3032 
G01 X7.6158 Y6.3346 
G01 X6.3346 Y7.6158 
G01 X6.3032 Y7.6288 
G01 X6.2692 Y7.6288 
G01 X6.2378 Y7.6158 
G01 X5.8631 Y7.2412 
G01 X4.0004 Y8.0127 
G01 X3.5163 Y8.2548 
G01 X3.4733 Y8.2796 
G01 X3.4530 Y8.2864 
G01 X3.4337 Y8.2961 
G01 X3.3859 Y8.3092 
G01 X3.3389 Y8.3251 
G01 X3.3176 Y8.3279 
G01 X3.2968 Y8.3336 
G01 X3.2473 Y8.3371 
G01 X3.2035 Y8.3428 
G01 X0.9744 Y9.2661 
G01 X0.9744 Y9.7960 
G01 X0.9614 Y9.8274 
G01 X0.9374 Y9.8514 
G01 X0.9060 Y9.8644 
G01 X-0.9060 Y9.8644 
G01 X-0.9374 Y9.8514 
G01 X-0.9614 Y9.8274 
G01 X-0.9744 Y9.7960 
G01 X-0.9744 Y9.2661 
G01 X-5.8631 Y7.2412 
G01 X-6.2378 Y7.6158 
G01 X-6.2692 Y7.6288 
G01 X-6.3032 Y7.6288 
G01 X-6.3346 Y7.6158 
G01 X-7.6158 Y6.3346 
G01 X-7.6288 Y6.3032 
G01 X-7.6288 Y6.2692 
G01 X-7.6158 Y6.2378 
G01 X-7.2412 Y5.8631 
G01 X-9.2661 Y0.9744 
G01 X-9.7960 Y0.9744 
G01 X-9.8274 Y0.9614 
G01 X-9.8514 Y0.9374 
G01 X-9.8644 Y0.9060 
G01 X-9.8644 Y-0.9060 
G01 X-9.8514 Y-0.9374 
G01 X-9.8274 Y-0.9614 
G01 X-9.7960 Y-0.9744 
G01 X-9.2661 Y-0.9744 
G00 Z2.5400 
G00 X0.2034 Y-0.4418 
G01 Z-0.3500 F100.00 
G01 X-0.4418 Y0.2034 F100.00 
G01 X-1.3542 Y0.2034 
G01 X-1.9994 Y-0.4418 
G01 X-1.9994 Y-0.8010 
G01 X-2.2430 Y-1.0446 
G01 X-4.1187 Y-1.0446 
G01 X-4.1968 Y-1.0769 
G01 X-4.2566 Y-1.1367 
G01 X-4.2889 Y-1.2147 
G01 X-4.2889 Y-2.7616 
G01 X-5.2486 Y-0.4446 
G01 X-5.2486 Y0.4446 
G01 X-4.0257 Y3.3969 
G01 X-3.3969 Y4.0257 
G01 X-0.4446 Y5.2486 
G01 X0.4562 Y5.2486 
G01 X1.1014 Y5.8938 
G01 X1.1014 Y6.8062 
G01 X0.4562 Y7.4514 
G01 X-0.4562 Y7.4514 
G01 X-1.0932 Y6.8144 
G01 X-4.0455 Y5.5915 
G01 X-4.9463 Y5.5915 
G01 X-5.5915 Y4.9463 
G01 X-5.5915 Y4.0455 
G01 X-6.8144 Y1.0932 
G01 X-7.4514 Y0.4562 
G01 X-7.4514 Y-0.4562 
G01 X-6.8144 Y-1.0932 
G01 X-5.5915 Y-4.0455 
G01 X-5.5915 Y-4.9463 
G01 X-4.9463 Y-5.5915 
G01 X-4.0455 Y-5.5915 
G01 X-1.0932 Y-6.8144 
G01 X-0.4562 Y-7.4514 
G01 X0.4562 Y-7.4514 
G01 X1.0932 Y-6.8144 
G01 X4.0455 Y-5.5915 
G01 X4.9463 Y-5.5915 
G01 X5.5915 Y-4.9463 
G01 X5.5915 Y-4.0455 
G01 X6.8144 Y-1.0932 
G01 X7.4514 Y-0.4562 
G01 X7.4514 Y0.4562 
G01 X6.8144 Y1.0932 
G01 X5.5915 Y4.0455 
G01 X5.5915 Y4.9463 
G01 X4.9463 Y5.5915 
G01 X4.0339 Y5.5915 
G01 X3.3887 Y4.9463 
G01 X3.3887 Y4.0339 
G01 X4.0257 Y3.3969 
G01 X5.2486 Y0.4446 
G01 X5.2486 Y-0.4446 
G01 X4.0257 Y-3.3969 
G01 X3.3969 Y-4.0257 
G01 X0.4446 Y-5.2486 
G01 X-0.4446 Y-5.2486 
G01 X-2.9942 Y-4.1926 
G01 X-1.9592 Y-3.1576 
G01 X-1.9161 Y-3.1194 
G01 X-1.9002 Y-3.0986 
G01 X-1.8818 Y-3.0802 
G01 X-0.8010 Y-1.9994 
G01 X-0.4418 Y-1.9994 
G01 X0.2034 Y-1.3542 
G01 X0.2034 Y-0.4418 
G00 Z2.5400 
G00 X0.7777 Y-0.5393 
G01 Z-0.3500 F100.00 
G01 X0.8558 Y-0.5716 F100.00 
G01 X0.9403 Y-0.5716 
G01 X1.0183 Y-0.5393 
G01 X2.3353 Y0.7777 
G01 X2.3677 Y0.8558 
G01 X2.3677 Y0.9403 
G01 X2.3353 Y1.0183 
G01 X1.9605 Y1.3932 
G01 X3.6737 Y6.4511 
G01 X5.1930 Y5.8218 
G01 X5.8218 Y5.1930 
G01 X7.7886 Y0.4446 
G01 X7.7886 Y-0.4446 
G01 X5.8218 Y-5.1930 
G01 X5.1930 Y-5.8218 
G01 X0.4446 Y-7.7886 
G01 X-0.4446 Y-7.7886 
G01 X-5.1930 Y-5.8218 
G01 X-5.8218 Y-5.1930 
G01 X-7.7886 Y-0.4446 
G01 X-7.7886 Y0.4446 
G01 X-5.8218 Y5.1930 
G01 X-5.1930 Y5.8218 
G01 X-0.4446 Y7.7886 
G01 X0.4447 Y7.7886 
G01 X2.1045 Y7.1011 
G01 X0.3429 Y1.9005 
G01 X-0.5393 Y1.0183 
G01 X-0.5716 Y0.9403 
G01 X-0.5716 Y0.8558 
G01 X-0.5393 Y0.7777 
G01 X0.7777 Y-0.5393 
G00 Z2.5400 
G00 X-2.1532 Y-0.1931 
G01 Z-0.3500 F100.00 
G01 X-2.0934 Y-0.1333 F100.00 
G01 X-2.0611 Y-0.0552 
G01 X-2.0611 Y0.8802 
G01 X-1.4725 Y1.6926 
G01 X-0.5927 Y1.6926 
G01 X-0.5147 Y1.7249 
G01 X-0.4549 Y1.7847 
G01 X-0.4226 Y1.8627 
G01 X-0.4226 Y3.2172 
G01 X-0.4549 Y3.2953 
G01 X-0.5147 Y3.3551 
G01 X-0.5927 Y3.3874 
G01 X-1.8890 Y3.3874 
G01 X-1.9563 Y3.3899 
G01 X-1.9723 Y3.3874 
G01 X-3.2172 Y3.3874 
G01 X-3.2953 Y3.3551 
G01 X-3.3551 Y3.2953 
G01 X-3.3874 Y3.2172 
G01 X-3.3874 Y1.9382 
G01 X-3.4880 Y1.7994 
G01 X-4.1187 Y1.7994 
G01 X-4.1968 Y1.7671 
G01 X-4.2566 Y1.7073 
G01 X-4.2889 Y1.6292 
G01 X-4.2889 Y-0.0552 
G01 X-4.2566 Y-0.1333 
G01 X-4.1968 Y-0.1931 
G01 X-4.1187 Y-0.2254 
G01 X-2.2313 Y-0.2254 
G01 X-2.1532 Y-0.1931 
G00 Z2.5400 
G00 X-9.3510 Y-1.1014 
G01 Z-0.3500 F100.00 
G01 X-7.3910 Y-5.8334 F100.00 
G01 X-7.7235 Y-6.1659 
G01 X-7.7558 Y-6.2439 
G01 X-7.7558 Y-6.3284 
G01 X-7.7235 Y-6.4065 
G01 X-6.4065 Y-7.7235 
G01 X-6.3284 Y-7.7558 
G01 X-6.2439 Y-7.7558 
G01 X-6.1659 Y-7.7235 
G01 X-5.8334 Y-7.3910 
G01 X-1.1014 Y-9.3510 
G01 X-1.1014 Y-9.8212 
G01 X-1.0691 Y-9.8993 
G01 X-1.0093 Y-9.9591 
G01 X-0.9312 Y-9.9914 
G01 X0.9312 Y-9.9914 
G01 X1.0093 Y-9.9591 
G01 X1.0691 Y-9.8993 
G01 X1.1014 Y-9.8212 
G01 X1.1014 Y-9.3510 
G01 X5.8334 Y-7.3910 
G01 X6.1659 Y-7.7235 
G01 X6.2439 Y-7.7558 
G01 X6.3284 Y-7.7558 
G01 X6.4065 Y-7.7235 
G01 X7.7235 Y-6.4065 
G01 X7.7558 Y-6.3284 
G01 X7.7558 Y-6.2439 
G01 X7.7235 Y-6.1659 
G01 X7.3910 Y-5.8334 
G01 X9.3510 Y-1.1014 
G01 X9.8212 Y-1.1014 
G01 X9.8993 Y-1.0691 
G01 X9.9591 Y-1.0093 
G01 X9.9914 Y-0.9312 
G01 X9.9914 Y0.9312 
G01 X9.9591 Y1.0093 
G01 X9.8993 Y1.0691 
G01 X9.8212 Y1.1014 
G01 X9.3510 Y1.1014 
G01 X7.3910 Y5.8334 
G01 X7.7235 Y6.1659 
G01 X7.7558 Y6.2439 
G01 X7.7558 Y6.3284 
G01 X7.7235 Y6.4065 
G01 X6.4065 Y7.7235 
G01 X6.3284 Y7.7558 
G01 X6.2439 Y7.7558 
G01 X6.1659 Y7.7235 
G01 X5.8334 Y7.3910 
G01 X4.1024 Y8.1079 
G01 X4.0531 Y8.1284 
G01 X3.5764 Y8.3667 
G01 X3.5259 Y8.3958 
G01 X3.5019 Y8.4039 
G01 X3.4793 Y8.4153 
G01 X3.4231 Y8.4307 
G01 X3.3678 Y8.4494 
G01 X3.3427 Y8.4527 
G01 X3.3183 Y8.4594 
G01 X3.2601 Y8.4635 
G01 X3.2366 Y8.4666 
G01 X1.1014 Y9.3510 
G01 X1.1014 Y9.8212 
G01 X1.0691 Y9.8993 
G01 X1.0093 Y9.9591 
G01 X0.9312 Y9.9914 
G01 X-0.9312 Y9.9914 
G01 X-1.0093 Y9.9591 
G01 X-1.0691 Y9.8993 
G01 X-1.1014 Y9.8212 
G01 X-1.1014 Y9.3510 
G01 X-5.8334 Y7.3910 
G01 X-6.1659 Y7.7235 
G01 X-6.2439 Y7.7558 
G01 X-6.3284 Y7.7558 
G01 X-6.4065 Y7.7235 
G01 X-7.7235 Y6.4065 
G01 X-7.7558 Y6.3284 
G01 X-7.7558 Y6.2439 
G01 X-7.7235 Y6.1659 
G01 X-7.3910 Y5.8334 
G01 X-9.3510 Y1.1014 
G01 X-9.8212 Y1.1014 
G01 X-9.8993 Y1.0691 
G01 X-9.9591 Y1.0093 
G01 X-9.9914 Y0.9312 
G01 X-9.9914 Y-0.9312 
G01 X-9.9591 Y-1.0093 
G01 X-9.8993 Y-1.0691 
G01 X-9.8212 Y-1.1014 
G01 X-9.3510 Y-1.1014 
G00 Z2.5400 
G00 X0.3304 Y-0.3892 
G01 Z-0.3500 F100.00 
G01 X-0.3892 Y0.3304 F100.00 
G01 X-1.4068 Y0.3304 
G01 X-2.1264 Y-0.3892 
G01 X-2.1264 Y-0.7484 
G01 X-2.2956 Y-0.9176 
G01 X-4.1212 Y-0.9176 
G01 X-4.2075 Y-0.9407 
G01 X-4.2849 Y-0.9854 
G01 X-4.3481 Y-1.0486 
G01 X-4.3928 Y-1.1260 
G01 X-4.4159 Y-1.2123 
G01 X-4.4159 Y-2.1231 
G01 X-5.1216 Y-0.4194 
G01 X-5.1216 Y0.4194 
G01 X-3.9181 Y3.3250 
G01 X-3.3250 Y3.9181 
G01 X-0.4194 Y5.1216 
G01 X0.5088 Y5.1216 
G01 X1.2284 Y5.8412 
G01 X1.2284 Y6.8588 
G01 X0.5088 Y7.5784 
G01 X-0.5088 Y7.5784 
G01 X-1.1652 Y6.9221 
G01 X-4.0707 Y5.7185 
G01 X-4.9989 Y5.7185 
G01 X-5.7185 Y4.9989 
G01 X-5.7185 Y4.0707 
G01 X-6.9221 Y1.1652 
G01 X-7.5784 Y0.5088 
G01 X-7.5784 Y-0.5088 
G01 X-6.9221 Y-1.1652 
G01 X-5.7185 Y-4.0707 
G01 X-5.7185 Y-4.9989 
G01 X-4.9989 Y-5.7185 
G01 X-4.0707 Y-5.7185 
G01 X-1.1652 Y-6.9221 
G01 X-0.5088 Y-7.5784 
G01 X0.5088 Y-7.5784 
G01 X1.1652 Y-6.9221 
G01 X4.0707 Y-5.7185 
G01 X4.9989 Y-5.7185 
G01 X5.7185 Y-4.9989 
G01 X5.7185 Y-4.0707 
G01 X6.9221 Y-1.1652 
G01 X7.5784 Y-0.5088 
G01 X7.5784 Y0.5088 
G01 X6.9221 Y1.1652 
G01 X5.7185 Y4.0707 
G01 X5.7185 Y4.9989 
G01 X4.9989 Y5.7185 
G01 X3.9813 Y5.7185 
G01 X3.3437 Y5.0809 
G01 X3.7505 Y6.2818 
G01 X5.1210 Y5.7141 
G01 X5.7141 Y5.1210 
G01 X7.6616 Y0.4194 
G01 X7.6616 Y-0.4194 
G01 X5.7141 Y-5.1210 
G01 X5.1210 Y-5.7141 
G01 X0.4194 Y-7.6616 
G01 X-0.4194 Y-7.6616 
G01 X-5.1210 Y-5.7141 
G01 X-5.7141 Y-5.1210 
G01 X-7.6616 Y-0.4194 
G01 X-7.6616 Y0.4194 
G01 X-5.7141 Y5.1210 
G01 X-5.1210 Y5.7141 
G01 X-0.4194 Y7.6616 
G01 X0.4194 Y7.6616 
G01 X1.9461 Y7.0292 
G01 X0.2321 Y1.9693 
G01 X-0.6308 Y1.1064 
G01 X-0.6755 Y1.0290 
G01 X-0.6986 Y0.9427 
G01 X-0.6986 Y0.8533 
G01 X-0.6755 Y0.7670 
G01 X-0.6308 Y0.6896 
G01 X0.6896 Y-0.6308 
G01 X0.7670 Y-0.6755 
G01 X0.8533 Y-0.6986 
G01 X0.9427 Y-0.6986 
G01 X1.0290 Y-0.6755 
G01 X1.1064 Y-0.6308 
G01 X2.4268 Y0.6896 
G01 X2.4715 Y0.7670 
G01 X2.4947 Y0.8533 
G01 X2.4947 Y0.9427 
G01 X2.4715 Y1.0290 
G01 X2.4268 Y1.1064 
G01 X2.1061 Y1.4272 
G01 X3.2617 Y4.8389 
G01 X3.2617 Y3.9813 
G01 X3.9181 Y3.3250 
G01 X5.1216 Y0.4194 
G01 X5.1216 Y-0.4194 
G01 X3.9181 Y-3.3250 
G01 X3.3250 Y-3.9181 
G01 X0.4194 Y-5.1216 
G01 X-0.4194 Y-5.1216 
G01 X-2.7700 Y-4.1480 
G01 X-1.8721 Y-3.2501 
G01 X-1.8226 Y-3.2063 
G01 X-1.8044 Y-3.1824 
G01 X-1.7831 Y-3.1611 
G01 X-0.7484 Y-2.1264 
G01 X-0.3892 Y-2.1264 
G01 X0.3304 Y-1.4068 
G01 X0.3304 Y-0.3892 
G00 Z2.5400 
G00 X-2.0651 Y-0.2846 
G01 Z-0.3500 F100.00 
G01 X-2.0019 Y-0.2214 F100.00 
G01 X-1.9572 Y-0.1440 
G01 X-1.9341 Y-0.0577 
G01 X-1.9341 Y0.8390 
G01 X-1.4077 Y1.5656 
G01 X-0.5903 Y1.5656 
G01 X-0.5040 Y1.5887 
G01 X-0.4266 Y1.6334 
G01 X-0.3634 Y1.6966 
G01 X-0.3187 Y1.7740 
G01 X-0.2956 Y1.8603 
G01 X-0.2956 Y3.2197 
G01 X-0.3187 Y3.3060 
G01 X-0.3634 Y3.3834 
G01 X-0.4266 Y3.4466 
G01 X-0.5040 Y3.4913 
G01 X-0.5903 Y3.5144 
G01 X-1.8865 Y3.5144 
G01 X-1.9640 Y3.5173 
G01 X-1.9823 Y3.5144 
G01 X-3.2197 Y3.5144 
G01 X-3.3060 Y3.4913 
G01 X-3.3834 Y3.4466 
G01 X-3.4466 Y3.3834 
G01 X-3.4913 Y3.3060 
G01 X-3.5144 Y3.2197 
G01 X-3.5144 Y1.9794 
G01 X-3.5528 Y1.9264 
G01 X-4.1212 Y1.9264 
G01 X-4.2075 Y1.9033 
G01 X-4.2849 Y1.8586 
G01 X-4.3481 Y1.7954 
G01 X-4.3928 Y1.7180 
G01 X-4.4159 Y1.6317 
G01 X-4.4159 Y-0.0577 
G01 X-4.3928 Y-0.1440 
G01 X-4.3481 Y-0.2214 
G01 X-4.2849 Y-0.2846 
G01 X-4.2075 Y-0.3293 
G01 X-4.1212 Y-0.3524 
G01 X-2.2288 Y-0.3524 
G01 X-2.1425 Y-0.3293 
G01 X-2.0651 Y-0.2846 
G00 Z2.5400 
G00 X-9.4359 Y-1.2284 
G01 Z-0.3500 F100.00 
G01 X-7.5408 Y-5.8036 F100.00 
G01 X-7.8150 Y-6.0778 
G01 X-7.8597 Y-6.1552 
G01 X-7.8828 Y-6.2415 
G01 X-7.8828 Y-6.3309 
G01 X-7.8597 Y-6.4172 
G01 X-7.8150 Y-6.4946 
G01 X-6.4946 Y-7.8150 
G01 X-6.4172 Y-7.8597 
G01 X-6.3309 Y-7.8828 
G01 X-6.2415 Y-7.8828 
G01 X-6.1552 Y-7.8597 
G01 X-6.0778 Y-7.8150 
G01 X-5.8036 Y-7.5408 
G01 X-1.2284 Y-9.4359 
G01 X-1.2284 Y-9.8237 
G01 X-1.2053 Y-9.9100 
G01 X-1.1606 Y-9.9874 
G01 X-1.0974 Y-10.0506 
G01 X-1.0200 Y-10.0953 
G01 X-0.9337 Y-10.1184 
G01 X0.9337 Y-10.1184 
G01 X1.0200 Y-10.0953 
G01 X1.0974 Y-10.0506 
G01 X1.1606 Y-9.9874 
G01 X1.2053 Y-9.9100 
G01 X1.2284 Y-9.8237 
G01 X1.2284 Y-9.4359 
G01 X5.8036 Y-7.5408 
G01 X6.0778 Y-7.8150 
G01 X6.1552 Y-7.8597 
G01 X6.2415 Y-7.8828 
G01 X6.3309 Y-7.8828 
G01 X6.4172 Y-7.8597 
G01 X6.4946 Y-7.8150 
G01 X7.8150 Y-6.4946 
G01 X7.8597 Y-6.4172 
G01 X7.8828 Y-6.3309 
G01 X7.8828 Y-6.2415 
G01 X7.8597 Y-6.1552 
G01 X7.8150 Y-6.0778 
G01 X7.5408 Y-5.8036 
G01 X9.4359 Y-1.2284 
G01 X9.8237 Y-1.2284 
G01 X9.9100 Y-1.2053 
G01 X9.9874 Y-1.1606 
G01 X10.0506 Y-1.0974 
G01 X10.0953 Y-1.0200 
G01 X10.1184 Y-0.9337 
G01 X10.1184 Y0.9337 
G01 X10.0953 Y1.0200 
G01 X10.0506 Y1.0974 
G01 X9.9874 Y1.1606 
G01 X9.9100 Y1.2053 
G01 X9.8237 Y1.2284 
G01 X9.4359 Y1.2284 
G01 X7.5408 Y5.8036 
G01 X7.8150 Y6.0778 
G01 X7.8597 Y6.1552 
G01 X7.8828 Y6.2415 
G01 X7.8828 Y6.3309 
G01 X7.8597 Y6.4172 
G01 X7.8150 Y6.4946 
G01 X6.4946 Y7.8150 
G01 X6.4172 Y7.8597 
G01 X6.3309 Y7.8828 
G01 X6.2415 Y7.8828 
G01 X6.1552 Y7.8597 
G01 X6.0778 Y7.8150 
G01 X5.8036 Y7.5408 
G01 X4.1626 Y8.2205 
G01 X4.1059 Y8.2440 
G01 X3.6366 Y8.4786 
G01 X3.5785 Y8.5121 
G01 X3.5510 Y8.5214 
G01 X3.5249 Y8.5344 
G01 X3.4602 Y8.5522 
G01 X3.3967 Y8.5737 
G01 X3.3679 Y8.5775 
G01 X3.3398 Y8.5851 
G01 X3.2729 Y8.5899 
G01 X3.2697 Y8.5903 
G01 X1.2284 Y9.4359 
G01 X1.2284 Y9.8237 
G01 X1.2053 Y9.9100 
G01 X1.1606 Y9.9874 
G01 X1.0974 Y10.0506 
G01 X1.0200 Y10.0953 
G01 X0.9337 Y10.1184 
G01 X-0.9337 Y10.1184 
G01 X-1.0200 Y10.0953 
G01 X-1.0974 Y10.0506 
G01 X-1.1606 Y9.9874 
G01 X-1.2053 Y9.9100 
G01 X-1.2284 Y9.8237 
G01 X-1.2284 Y9.4359 
G01 X-5.8036 Y7.5408 
G01 X-6.0778 Y7.8150 
G01 X-6.1552 Y7.8597 
G01 X-6.2415 Y7.8828 
G01 X-6.3309 Y7.8828 
G01 X-6.4172 Y7.8597 
G01 X-6.4946 Y7.8150 
G01 X-7.8150 Y6.4946 
G01 X-7.8597 Y6.4172 
G01 X-7.8828 Y6.3309 
G01 X-7.8828 Y6.2415 
G01 X-7.8597 Y6.1552 
G01 X-7.8150 Y6.0778 
G01 X-7.5408 Y5.8036 
G01 X-9.4359 Y1.2284 
G01 X-9.8237 Y1.2284 
G01 X-9.9100 Y1.2053 
G01 X-9.9874 Y1.1606 
G01 X-10.0506 Y1.0974 
G01 X-10.0953 Y1.0200 
G01 X-10.1184 Y0.9337 
G01 X-10.1184 Y-0.9337 
G01 X-10.0953 Y-1.0200 
G01 X-10.0506 Y-1.0974 
G01 X-9.9874 Y-1.1606 
G01 X-9.9100 Y-1.2053 
G01 X-9.8237 Y-1.2284 
G01 X-9.4359 Y-1.2284 
G00 Z2.5400 
G00 X0.4574 Y-0.5781 
G01 Z-0.3500 F100.00 
G01 X0.6116 Y-0.7324 F100.00 
G01 X0.7180 Y-0.7938 
G01 X0.8366 Y-0.8256 
G01 X0.9594 Y-0.8256 
G01 X1.0780 Y-0.7938 
G01 X1.1844 Y-0.7324 
G01 X2.5285 Y0.6116 
G01 X2.5899 Y0.7180 
G01 X2.6217 Y0.8366 
G01 X2.6217 Y0.9594 
G01 X2.5899 Y1.0780 
G01 X2.5285 Y1.1844 
G01 X2.2517 Y1.4612 
G01 X3.1347 Y4.0682 
G01 X3.1347 Y3.9287 
G01 X3.8104 Y3.2530 
G01 X4.9946 Y0.3941 
G01 X4.9946 Y-0.3941 
G01 X3.8104 Y-3.2530 
G01 X3.2530 Y-3.8104 
G01 X0.3941 Y-4.9946 
G01 X-0.3941 Y-4.9946 
G01 X-2.5458 Y-4.1034 
G01 X-1.7697 Y-3.3273 
G01 X-1.7159 Y-3.2758 
G01 X-1.7085 Y-3.2661 
G01 X-1.6999 Y-3.2575 
G01 X-0.6958 Y-2.2534 
G01 X-0.3366 Y-2.2534 
G01 X0.4574 Y-1.4594 
G01 X0.4574 Y-0.5781 
G00 Z2.5400 
G00 X-0.5781 Y0.4574 
G01 Z-0.3500 F100.00 
G01 X-1.4594 Y0.4574 F100.00 
G01 X-1.8071 Y0.1097 
G01 X-1.8071 Y0.7978 
G01 X-1.3429 Y1.4386 
G01 X-0.5736 Y1.4386 
G01 X-0.4550 Y1.4704 
G01 X-0.4348 Y1.4821 
G01 X-0.7324 Y1.1844 
G01 X-0.7938 Y1.0780 
G01 X-0.8256 Y0.9594 
G01 X-0.8256 Y0.8366 
G01 X-0.7938 Y0.7180 
G01 X-0.7324 Y0.6116 
G01 X-0.5781 Y0.4574 
G00 Z2.5400 
G00 X-0.2121 Y1.7048 
G01 Z-0.3500 F100.00 
G01 X-0.2004 Y1.7250 F100.00 
G01 X-0.1686 Y1.8436 
G01 X-0.1686 Y3.2364 
G01 X-0.2004 Y3.3550 
G01 X-0.2618 Y3.4614 
G01 X-0.3486 Y3.5482 
G01 X-0.4550 Y3.6096 
G01 X-0.5736 Y3.6414 
G01 X-1.8191 Y3.6414 
G01 X-1.9050 Y3.6414 
G01 X-3.2364 Y3.6414 
G01 X-3.3550 Y3.6096 
G01 X-3.4614 Y3.5482 
G01 X-3.5482 Y3.4614 
G01 X-3.6096 Y3.3550 
G01 X-3.6414 Y3.2364 
G01 X-3.6414 Y2.0534 
G01 X-4.1379 Y2.0534 
G01 X-4.2565 Y2.0216 
G01 X-4.3406 Y1.9731 
G01 X-3.8104 Y3.2530 
G01 X-3.2530 Y3.8104 
G01 X-0.3941 Y4.9946 
G01 X0.5614 Y4.9946 
G01 X1.3554 Y5.7886 
G01 X1.3554 Y6.9114 
G01 X0.9713 Y7.2955 
G01 X1.7877 Y6.9574 
G01 X0.1214 Y2.0382 
G01 X-0.2121 Y1.7048 
G00 Z2.5400 
G00 X-2.2534 Y-0.4794 
G01 Z-0.3500 F100.00 
G01 X-2.2534 Y-0.6958 F100.00 
G01 X-2.3482 Y-0.7906 
G01 X-4.1379 Y-0.7906 
G01 X-4.2565 Y-0.8224 
G01 X-4.3629 Y-0.8838 
G01 X-4.4497 Y-0.9706 
G01 X-4.5111 Y-1.0770 
G01 X-4.5429 Y-1.1956 
G01 X-4.5429 Y-1.4846 
G01 X-4.9946 Y-0.3941 
G01 X-4.9946 Y0.3941 
G01 X-4.5429 Y1.4846 
G01 X-4.5429 Y-0.0744 
G01 X-4.5111 Y-0.1930 
G01 X-4.4497 Y-0.2994 
G01 X-4.3629 Y-0.3862 
G01 X-4.2565 Y-0.4476 
G01 X-4.1379 Y-0.4794 
G01 X-2.2534 Y-0.4794 
G00 Z2.5400 
G00 X-7.0297 Y-1.2371 
G01 Z-0.3500 F100.00 
G01 X-5.8455 Y-4.0960 F100.00 
G01 X-5.8455 Y-4.4719 
G01 X-7.2955 Y-0.9713 
G01 X-7.0297 Y-1.2371 
G00 Z2.5400 
G00 X-7.0297 Y1.2371 
G01 Z-0.3500 F100.00 
G01 X-7.2955 Y0.9713 F100.00 
G01 X-5.8455 Y4.4719 
G01 X-5.8455 Y4.0960 
G01 X-7.0297 Y1.2371 
G00 Z2.5400 
G00 X-9.5207 Y1.3554 
G01 Z-0.3500 F100.00 
G01 X-9.8404 Y1.3554 F100.00 
G01 X-9.9590 Y1.3236 
G01 X-10.0654 Y1.2622 
G01 X-10.1522 Y1.1754 
G01 X-10.2136 Y1.0690 
G01 X-10.2454 Y0.9504 
G01 X-10.2454 Y-0.9504 
G01 X-10.2136 Y-1.0690 
G01 X-10.1522 Y-1.1754 
G01 X-10.0654 Y-1.2622 
G01 X-9.9590 Y-1.3236 
G01 X-9.8404 Y-1.3554 
G01 X-9.5207 Y-1.3554 
G01 X-7.6906 Y-5.7738 
G01 X-7.9166 Y-5.9998 
G01 X-7.9780 Y-6.1062 
G01 X-8.0098 Y-6.2248 
G01 X-8.0098 Y-6.3476 
G01 X-7.9780 Y-6.4662 
G01 X-7.9166 Y-6.5726 
G01 X-6.5726 Y-7.9166 
G01 X-6.4662 Y-7.9780 
G01 X-6.3476 Y-8.0098 
G01 X-6.2248 Y-8.0098 
G01 X-6.1062 Y-7.9780 
G01 X-5.9998 Y-7.9166 
G01 X-5.7738 Y-7.6906 
G01 X-1.3554 Y-9.5207 
G01 X-1.3554 Y-9.8404 
G01 X-1.3236 Y-9.9590 
G01 X-1.2622 Y-10.0654 
G01 X-1.1754 Y-10.1522 
G01 X-1.0690 Y-10.2136 
G01 X-0.9504 Y-10.2454 
G01 X0.9504 Y-10.2454 
G01 X1.0690 Y-10.2136 
G01 X1.1754 Y-10.1522 
G01 X1.2622 Y-10.0654 
G01 X1.3236 Y-9.9590 
G01 X1.3554 Y-9.8404 
G01 X1.3554 Y-9.5207 
G01 X5.7738 Y-7.6906 
G01 X5.9998 Y-7.9166 
G01 X6.1062 Y-7.9780 
G01 X6.2248 Y-8.0098 
G01 X6.3476 Y-8.0098 
G01 X6.4662 Y-7.9780 
G01 X6.5726 Y-7.9166 
G01 X7.9166 Y-6.5726 
G01 X7.9780 Y-6.4662 
G01 X8.0098 Y-6.3476 
G01 X8.0098 Y-6.2248 
G01 X7.9780 Y-6.1062 
G01 X7.9166 Y-5.9998 
G01 X7.6906 Y-5.7738 
G01 X9.5207 Y-1.3554 
G01 X9.8404 Y-1.3554 
G01 X9.9590 Y-1.3236 
G01 X10.0654 Y-1.2622 
G01 X10.1522 Y-1.1754 
G01 X10.2136 Y-1.0690 
G01 X10.2454 Y-0.9504 
G01 X10.2454 Y0.9504 
G01 X10.2136 Y1.0690 
G01 X10.1522 Y1.1754 
G01 X10.0654 Y1.2622 
G01 X9.9590 Y1.3236 
G01 X9.8404 Y1.3554 
G01 X9.5207 Y1.3554 
G01 X7.6906 Y5.7738 
G01 X7.9166 Y5.9998 
G01 X7.9780 Y6.1062 
G01 X8.0098 Y6.2248 
G01 X8.0098 Y6.3476 
G01 X7.9780 Y6.4662 
G01 X7.9166 Y6.5726 
G01 X6.5726 Y7.9166 
G01 X6.4662 Y7.9780 
G01 X6.3476 Y8.0098 
G01 X6.2248 Y8.0098 
G01 X6.1062 Y7.9780 
G01 X5.9998 Y7.9166 
G01 X5.7738 Y7.6906 
G01 X4.2026 Y8.3414 
G01 X4.1586 Y8.3596 
G01 X3.6774 Y8.6002 
G01 X3.6105 Y8.6354 
G01 X3.6000 Y8.6389 
G01 X3.5900 Y8.6439 
G01 X3.5179 Y8.6667 
G01 X3.4463 Y8.6910 
G01 X3.4353 Y8.6929 
G01 X3.4247 Y8.6962 
G01 X3.3499 Y8.7075 
G01 X3.2968 Y8.7166 
G01 X1.3554 Y9.5207 
G01 X1.3554 Y9.8404 
G01 X1.3236 Y9.9590 
G01 X1.2622 Y10.0654 
G01 X1.1754 Y10.1522 
G01 X1.0690 Y10.2136 
G01 X0.9504 Y10.2454 
G01 X-0.9504 Y10.2454 
G01 X-1.0690 Y10.2136 
G01 X-1.1754 Y10.1522 
G01 X-1.2622 Y10.0654 
G01 X-1.3236 Y9.9590 
G01 X-1.3554 Y9.8404 
G01 X-1.3554 Y9.5207 
G01 X-5.7738 Y7.6906 
G01 X-5.9998 Y7.9166 
G01 X-6.1062 Y7.9780 
G01 X-6.2248 Y8.0098 
G01 X-6.3476 Y8.0098 
G01 X-6.4662 Y7.9780 
G01 X-6.5726 Y7.9166 
G01 X-7.9166 Y6.5726 
G01 X-7.9780 Y6.4662 
G01 X-8.0098 Y6.3476 
G01 X-8.0098 Y6.2248 
G01 X-7.9780 Y6.1062 
G01 X-7.9166 Y5.9998 
G01 X-7.6906 Y5.7738 
G01 X-9.5207 Y1.3554 
G00 Z2.5400 
G00 X-4.4719 Y5.8455 
G01 Z-0.3500 F100.00 
G01 X-0.9713 Y7.2955 F100.00 
G01 X-1.2371 Y7.0297 
G01 X-4.0960 Y5.8455 
G01 X-4.4719 Y5.8455 
G00 Z2.5400 
G00 X3.9287 Y5.8455 
G01 Z-0.3500 F100.00 
G01 X3.6385 Y5.5553 F100.00 
G01 X3.8272 Y6.1126 
G01 X4.4719 Y5.8455 
G01 X3.9287 Y5.8455 
G00 Z2.5400 
G00 X5.8455 Y4.4719 
G01 Z-0.3500 F100.00 
G01 X7.2955 Y0.9713 F100.00 
G01 X7.0297 Y1.2371 
G01 X5.8455 Y4.0960 
G01 X5.8455 Y4.4719 
G00 Z2.5400 
G00 X7.0297 Y-1.2371 
G01 Z-0.3500 F100.00 
G01 X7.2955 Y-0.9713 F100.00 
G01 X5.8455 Y-4.4719 
G01 X5.8455 Y-4.0960 
G01 X7.0297 Y-1.2371 
G00 Z2.5400 
G00 X4.4719 Y-5.8455 
G01 Z-0.3500 F100.00 
G01 X0.9713 Y-7.2955 F100.00 
G01 X1.2371 Y-7.0297 
G01 X4.0960 Y-5.8455 
G01 X4.4719 Y-5.8455 
G00 Z2.5400 
G00 X-1.2371 Y-7.0297 
G01 Z-0.3500 F100.00 
G01 X-0.9713 Y-7.2955 F100.00 
G01 X-4.4719 Y-5.8455 
G01 X-4.0960 Y-5.8455 
G01 X-1.2371 Y-7.0297 
G00 Z2.5400 
G00 X0.5844 Y-0.8633 
G01 Z-0.3500 F100.00 
G01 X0.6169 Y-0.8851 F100.00 
G01 X0.7249 Y-0.9298 
G01 X0.8396 Y-0.9526 
G01 X0.9565 Y-0.9526 
G01 X1.0711 Y-0.9298 
G01 X1.1791 Y-0.8851 
G01 X1.2763 Y-0.8201 
G01 X2.6162 Y0.5198 
G01 X2.6811 Y0.6169 
G01 X2.7259 Y0.7249 
G01 X2.7487 Y0.8396 
G01 X2.7487 Y0.9565 
G01 X2.7259 Y1.0711 
G01 X2.6811 Y1.1791 
G01 X2.6162 Y1.2763 
G01 X2.3973 Y1.4952 
G01 X3.1542 Y3.7297 
G01 X3.7027 Y3.1811 
G01 X4.8676 Y0.3689 
G01 X4.8676 Y-0.3689 
G01 X3.7027 Y-3.1811 
G01 X3.1811 Y-3.7027 
G01 X0.3689 Y-4.8676 
G01 X-0.3689 Y-4.8676 
G01 X-2.3216 Y-4.0588 
G01 X-1.6809 Y-3.4181 
G01 X-1.6208 Y-3.3606 
G01 X-1.6126 Y-3.3498 
G01 X-1.6030 Y-3.3402 
G01 X-0.6432 Y-2.3804 
G01 X-0.2840 Y-2.3804 
G01 X0.5844 Y-1.5121 
G01 X0.5844 Y-0.8633 
G00 Z2.5400 
G00 X-0.8633 Y0.5844 
G01 Z-0.3500 F100.00 
G01 X-1.5121 Y0.5844 F100.00 
G01 X-1.6801 Y0.4163 
G01 X-1.6801 Y0.7566 
G01 X-1.2780 Y1.3116 
G01 X-0.7848 Y1.3116 
G01 X-0.8201 Y1.2763 
G01 X-0.8851 Y1.1791 
G01 X-0.9298 Y1.0711 
G01 X-0.9526 Y0.9565 
G01 X-0.9526 Y0.8396 
G01 X-0.9298 Y0.7249 
G01 X-0.8851 Y0.6169 
G01 X-0.8633 Y0.5844 
G00 Z2.5400 
G00 X-0.0416 Y2.0548 
G01 Z-0.3500 F100.00 
G01 X-0.0416 Y3.2334 F100.00 
G01 X-0.0644 Y3.3481 
G01 X-0.1091 Y3.4561 
G01 X-0.1741 Y3.5533 
G01 X-0.2567 Y3.6359 
G01 X-0.3539 Y3.7009 
G01 X-0.4619 Y3.7456 
G01 X-0.5766 Y3.7684 
G01 X-1.8092 Y3.7684 
G01 X-1.9063 Y3.7684 
G01 X-3.0226 Y3.7684 
G01 X-0.3689 Y4.8676 
G01 X0.6140 Y4.8676 
G01 X1.1156 Y5.3692 
G01 X0.0106 Y2.1070 
G01 X-0.0416 Y2.0548 
G00 Z2.5400 
G00 X-3.7684 Y2.1804 
G01 Z-0.3500 F100.00 
G01 X-4.1172 Y2.1804 F100.00 
G01 X-3.7684 Y3.0226 
G01 X-3.7684 Y2.1804 
G00 Z2.5400 
G00 X-4.6699 Y0.8462 
G01 Z-0.3500 F100.00 
G01 X-4.6699 Y-0.0714 F100.00 
G01 X-4.6471 Y-0.1861 
G01 X-4.6024 Y-0.2941 
G01 X-4.5374 Y-0.3913 
G01 X-4.4548 Y-0.4739 
G01 X-4.3576 Y-0.5389 
G01 X-4.2496 Y-0.5836 
G01 X-4.1349 Y-0.6064 
G01 X-2.3804 Y-0.6064 
G01 X-2.3804 Y-0.6432 
G01 X-2.4008 Y-0.6636 
G01 X-4.1349 Y-0.6636 
G01 X-4.2496 Y-0.6864 
G01 X-4.3576 Y-0.7311 
G01 X-4.4548 Y-0.7961 
G01 X-4.5374 Y-0.8787 
G01 X-4.6024 Y-0.9759 
G01 X-4.6093 Y-0.9926 
G01 X-4.8676 Y-0.3689 
G01 X-4.8676 Y0.3689 
G01 X-4.6699 Y0.8462 
G00 Z2.5400 
G00 X-9.6056 Y1.4824 
G01 Z-0.3500 F100.00 
G01 X-9.8374 Y1.4824 F100.00 
G01 X-9.9521 Y1.4596 
G01 X-10.0601 Y1.4149 
G01 X-10.1573 Y1.3499 
G01 X-10.2399 Y1.2673 
G01 X-10.3049 Y1.1701 
G01 X-10.3496 Y1.0621 
G01 X-10.3724 Y0.9474 
G01 X-10.3724 Y-0.9474 
G01 X-10.3496 Y-1.0621 
G01 X-10.3049 Y-1.1701 
G01 X-10.2399 Y-1.2673 
G01 X-10.1573 Y-1.3499 
G01 X-10.0601 Y-1.4149 
G01 X-9.9521 Y-1.4596 
G01 X-9.8374 Y-1.4824 
G01 X-9.6056 Y-1.4824 
G01 X-7.8404 Y-5.7440 
G01 X-8.0043 Y-5.9079 
G01 X-8.0693 Y-6.0051 
G01 X-8.1140 Y-6.1131 
G01 X-8.1368 Y-6.2277 
G01 X-8.1368 Y-6.3446 
G01 X-8.1140 Y-6.4593 
G01 X-8.0693 Y-6.5673 
G01 X-8.0043 Y-6.6644 
G01 X-6.6644 Y-8.0043 
G01 X-6.5673 Y-8.0693 
G01 X-6.4593 Y-8.1140 
G01 X-6.3446 Y-8.1368 
G01 X-6.2277 Y-8.1368 
G01 X-6.1131 Y-8.1140 
G01 X-6.0051 Y-8.0693 
G01 X-5.9079 Y-8.0043 
G01 X-5.7440 Y-7.8404 
G01 X-1.4824 Y-9.6056 
G01 X-1.4824 Y-9.8374 
G01 X-1.4596 Y-9.9521 
G01 X-1.4149 Y-10.0601 
G01 X-1.3499 Y-10.1573 
G01 X-1.2673 Y-10.2399 
G01 X-1.1701 Y-10.3049 
G01 X-1.0621 Y-10.3496 
G01 X-0.9474 Y-10.3724 
G01 X0.9474 Y-10.3724 
G01 X1.0621 Y-10.3496 
G01 X1.1701 Y-10.3049 
G01 X1.2673 Y-10.2399 
G01 X1.3499 Y-10.1573 
G01 X1.4149 Y-10.0601 
G01 X1.4596 Y-9.9521 
G01 X1.4824 Y-9.8374 
G01 X1.4824 Y-9.6056 
G01 X5.7440 Y-7.8404 
G01 X5.9079 Y-8.0043 
G01 X6.0051 Y-8.0693 
G01 X6.1131 Y-8.1140 
G01 X6.2277 Y-8.1368 
G01 X6.3446 Y-8.1368 
G01 X6.4593 Y-8.1140 
G01 X6.5673 Y-8.0693 
G01 X6.6644 Y-8.0043 
G01 X8.0043 Y-6.6644 
G01 X8.0693 Y-6.5673 
G01 X8.1140 Y-6.4593 
G01 X8.1368 Y-6.3446 
G01 X8.1368 Y-6.2277 
G01 X8.1140 Y-6.1131 
G01 X8.0693 Y-6.0051 
G01 X8.0043 Y-5.9079 
G01 X7.8404 Y-5.7440 
G01 X9.6056 Y-1.4824 
G01 X9.8374 Y-1.4824 
G01 X9.9521 Y-1.4596 
G01 X10.0601 Y-1.4149 
G01 X10.1573 Y-1.3499 
G01 X10.2399 Y-1.2673 
G01 X10.3049 Y-1.1701 
G01 X10.3496 Y-1.0621 
G01 X10.3724 Y-0.9474 
G01 X10.3724 Y0.9474 
G01 X10.3496 Y1.0621 
G01 X10.3049 Y1.1701 
G01 X10.2399 Y1.2673 
G01 X10.1573 Y1.3499 
G01 X10.0601 Y1.4149 
G01 X9.9521 Y1.4596 
G01 X9.8374 Y1.4824 
G01 X9.6056 Y1.4824 
G01 X7.8404 Y5.7440 
G01 X8.0043 Y5.9079 
G01 X8.0693 Y6.0051 
G01 X8.1140 Y6.1131 
G01 X8.1368 Y6.2277 
G01 X8.1368 Y6.3446 
G01 X8.1140 Y6.4593 
G01 X8.0693 Y6.5673 
G01 X8.0043 Y6.6644 
G01 X6.6644 Y8.0043 
G01 X6.5673 Y8.0693 
G01 X6.4593 Y8.1140 
G01 X6.3446 Y8.1368 
G01 X6.2277 Y8.1368 
G01 X6.1131 Y8.1140 
G01 X6.0051 Y8.0693 
G01 X5.9079 Y8.0043 
G01 X5.7440 Y7.8404 
G01 X4.2605 Y8.4549 
G01 X4.2114 Y8.4752 
G01 X3.7354 Y8.7132 
G01 X3.6607 Y8.7524 
G01 X3.6489 Y8.7564 
G01 X3.6379 Y8.7619 
G01 X3.5575 Y8.7874 
G01 X3.4775 Y8.8145 
G01 X3.4653 Y8.8166 
G01 X3.4535 Y8.8203 
G01 X3.3701 Y8.8329 
G01 X3.3322 Y8.8393 
G01 X1.4824 Y9.6056 
G01 X1.4824 Y9.8374 
G01 X1.4596 Y9.9521 
G01 X1.4149 Y10.0601 
G01 X1.3499 Y10.1573 
G01 X1.2673 Y10.2399 
G01 X1.1701 Y10.3049 
G01 X1.0621 Y10.3496 
G01 X0.9474 Y10.3724 
G01 X-0.9474 Y10.3724 
G01 X-1.0621 Y10.3496 
G01 X-1.1701 Y10.3049 
G01 X-1.2673 Y10.2399 
G01 X-1.3499 Y10.1573 
G01 X-1.4149 Y10.0601 
G01 X-1.4596 Y9.9521 
G01 X-1.4824 Y9.8374 
G01 X-1.4824 Y9.6056 
G01 X-5.7440 Y7.8404 
G01 X-5.9079 Y8.0043 
G01 X-6.0051 Y8.0693 
G01 X-6.1131 Y8.1140 
G01 X-6.2277 Y8.1368 
G01 X-6.3446 Y8.1368 
G01 X-6.4593 Y8.1140 
G01 X-6.5673 Y8.0693 
G01 X-6.6644 Y8.0043 
G01 X-8.0043 Y6.6644 
G01 X-8.0693 Y6.5673 
G01 X-8.1140 Y6.4593 
G01 X-8.1368 Y6.3446 
G01 X-8.1368 Y6.2277 
G01 X-8.1140 Y6.1131 
G01 X-8.0693 Y6.0051 
G01 X-8.0043 Y5.9079 
G01 X-7.8404 Y5.7440 
G01 X-9.6056 Y1.4824 
G00 Z2.5400 
G00 X1.4824 Y6.4520 
G01 Z-0.3500 F100.00 
G01 X1.4824 Y6.9464 F100.00 
G01 X1.6293 Y6.8855 
G01 X1.4824 Y6.4520 
G00 Z2.5400 
G00 Z2.540000
G00 X-0.8980 Y-0.8980 
G01 Z-0.2794 F200.00 
G01 Z2.540000
(R2.5400  P1.000000)
G00 X0.8980 Y0.8980 
G01 Z-0.200000
G01 Z2.540000
G00 X-4.4901 Y4.4901 
G01 Z-0.200000
G01 Z2.540000
G00 X-6.2862 Y6.2862 
G01 Z-0.200000
G01 Z2.540000
G00 X4.4901 Y-4.4901 
G01 Z-0.200000
G01 Z2.540000
G00 X6.2862 Y-6.2862 
G01 Z-0.200000
G01 Z2.540000
G00 X-4.4901 Y-4.4901 
G01 Z-0.200000
G01 Z2.540000
G00 X-6.2862 Y-6.2862 
G01 Z-0.200000
G01 Z2.540000
G00 X-6.3500 Y0.0000 
G01 Z-0.200000
G01 Z2.540000
G00 X-8.8900 Y0.0000 
G01 Z-0.200000
G01 Z2.540000
G00 X4.4901 Y4.4901 
G01 Z-0.200000
G01 Z2.540000
G00 X6.2862 Y6.2862 
G01 Z-0.200000
G01 Z2.540000
G00 X0.0000 Y-6.3500 
G01 Z-0.200000
G01 Z2.540000
G00 X0.0000 Y-8.8900 
G01 Z-0.200000
G01 Z2.540000
G00 X6.3500 Y0.0000 
G01 Z-0.200000
G01 Z2.540000
G00 X8.8900 Y0.0000 
G01 Z-0.200000
G01 Z2.540000
G00 X0.0000 Y6.3500 
G01 Z-0.200000
G01 Z2.540000
G00 X0.0000 Y8.8900 
G01 Z-0.200000
G01 Z2.540000
G00 Z12.7000 
M05
M02
