(.../_Drive/eagle/ULP/pcb-gcode.ulp)
(Copyright 2005 - 2012 by John Johnson)
(See readme.txt for licensing terms.)
(This file generated from the board:)
(.../_Drive/eagle/LED/FlashLight.brd)
(Current profile is .../eagle/ULP/profiles/generic.pp  )
(This file generated 12.07.2016 22:34)
(Settings from pcb-machine.h)
(spindle on time = 3.0000)
(tool change at 0.0000 0.0000 25.4000 )
(feed rate xy = F0.00  )
(feed rate z  = F0.00  )
(Z Axis Settings)
(  High     Up        Down     Drill)
(12.7000 	2.5400 	-0.3500 	-0.2000 )
(Settings from pcb-defaults.h)
(isolate min = 0.0254)
(isolate max = 0.5080)
(isolate step = 0.1270)
(Generated top outlines, top drill, bottom outlines, bottom drill, bottom stencil)
(Unit of measure: mm)
(Metric Mode)
G21
(Absolute Coordinates)
G90
S24000
G00 Z12.7000 
G00 X0.0000 Y0.0000 
M03
G04 P3.000000
G00 Z2.5400 
G00 X-0.7112 Y3.0988 
G01 Z-0.3500 F584.20 
G01 X-0.7112 Y1.9812 F558.80 
G01 X-3.0988 Y1.9812 
G01 X-3.0988 Y3.0988 
G01 X-0.7112 Y3.0988 
G01 X-0.7112 Y1.9812 
G00 Z2.5400 
G00 X-2.3497 Y1.5108 
G01 Z-0.3500 F584.20 
G01 X-2.3497 Y0.0632 F558.80 
G01 X-4.0003 Y0.0632 
G01 X-4.0003 Y1.5108 
G01 X-2.3497 Y1.5108 
G01 X-2.3497 Y0.0632 
G00 Z2.5400 
G00 X-2.3497 Y-1.3332 
G01 Z-0.3500 F584.20 
G01 X-2.3497 Y-2.7808 F558.80 
G01 X-4.0003 Y-2.7808 
G01 X-4.0003 Y-1.3332 
G01 X-2.3497 Y-1.3332 
G01 X-2.3497 Y-2.7808 
G00 Z2.5400 
G00 Z12.7000 
M05
M02
